;FLAVOR:Marlin
;TIME:1903
;Filament used: 1.30077m
;Layer height: 0.2
;MINX:87.052
;MINY:92.32
;MINZ:0.24
;MAXX:147.927
;MAXY:142.686
;MAXZ:9.49
;Generated with Cura_SteamEngine 4.5.0
M140 S50
M105
M190 S50
M104 S200
M105
M109 S200
M82 ;absolute extrusion mode
; Ender 3 Custom Start G-code
G92 E0 ; Reset Extruder
G28 ; Home all axes
G1 Z2.0 F3000 ; Move Z Axis up little to prevent scratching of Heat Bed
G1 X0.1 Y20 Z0.3 F5000.0 ; Move to start position
G1 X0.1 Y200.0 Z0.3 F1500.0 E15 ; Draw the first line
G1 X0.4 Y200.0 Z0.3 F5000.0 ; Move to side a little
G1 X0.4 Y20 Z0.3 F1500.0 E30 ; Draw the second line
G92 E0 ; Reset Extruder
G1 Z2.0 F3000 ; Move Z Axis up little to prevent scratching of Heat Bed
G1 X5 Y20 Z0.3 F5000.0 ; Move over to prevent blob squish
G92 E0
G92 E0
G1 F2700 E-5
;LAYER_COUNT:42
;LAYER:-6
M107
G0 F9000 X95.631 Y99.961 Z0.24
;TYPE:SUPPORT-INTERFACE
G1 F2700 E0
G1 F1125 X95.903 Y99.709 E0.0296
G1 X96.466 Y99.209 E0.0897
G1 X96.847 Y98.889 E0.12942
G1 X97.519 Y98.353 E0.19804
G1 X97.914 Y98.058 E0.23739
G1 X98.537 Y97.616 E0.29837
G1 X98.931 Y97.35 E0.33631
G1 X99.677 Y96.878 E0.40678
G1 X100.11 Y96.621 E0.44697
G1 X100.788 Y96.244 E0.5089
G1 X101.23 Y96.012 E0.54875
G1 X102.111 Y95.586 E0.62686
G1 X102.492 Y95.414 E0.66023
G1 X103.185 Y95.121 E0.72029
G1 X103.685 Y94.928 E0.76307
G1 X104.464 Y94.649 E0.82912
G1 X104.918 Y94.5 E0.86726
G1 X105.687 Y94.272 E0.93129
G1 X106.18 Y94.139 E0.97205
G1 X107.003 Y93.942 E1.0396
G1 X107.522 Y93.835 E1.0819
G1 X108.298 Y93.695 E1.14485
G1 X108.682 Y93.637 E1.17585
G1 X109.6 Y93.529 E1.24963
G1 X110.21 Y93.485 E1.29845
G1 X110.434 Y93.462 E1.31642
G1 X111.708 Y93.384 E1.41831
G1 X112.036 Y93.378 E1.4445
G1 X112.881 Y93.388 E1.51195
G1 X113.374 Y93.407 E1.55134
G1 X114.084 Y93.452 E1.60813
G1 X114.55 Y93.492 E1.64546
G1 X115.337 Y93.583 E1.7087
G1 X115.885 Y93.662 E1.7529
G1 X116.701 Y93.726 E1.81823
G1 X123.251 Y93.727 E2.34108
G1 X124.198 Y93.761 E2.41672
G1 X124.863 Y93.743 E2.46983
G1 X125.261 Y93.693 E2.50185
G1 X125.677 Y93.624 E2.53551
G1 X125.849 Y93.602 E2.54935
G1 X126.742 Y93.519 E2.62094
G1 X126.884 Y93.512 E2.63229
G1 X127.625 Y93.491 E2.69146
G1 X132.149 Y93.492 E3.05259
G1 X133.273 Y93.537 E3.14238
G1 X134.19 Y93.639 E3.21603
G1 X134.365 Y93.664 E3.23014
G1 X135.254 Y93.828 E3.3023
G1 X135.377 Y93.856 E3.31237
G1 X136.271 Y94.09 E3.38614
G1 X136.431 Y94.138 E3.39948
G1 X137.276 Y94.426 E3.47074
G1 X137.455 Y94.494 E3.48602
G1 X138.245 Y94.83 E3.55455
G1 X138.434 Y94.918 E3.57119
G1 X139.345 Y95.392 E3.65317
G1 X140.124 Y95.867 E3.726
G1 X140.275 Y95.967 E3.74045
G1 X140.989 Y96.478 E3.81054
G1 X141.137 Y96.591 E3.82541
G1 X141.932 Y97.259 E3.90829
G1 X142.605 Y97.903 E3.98265
G1 X143.251 Y98.599 E4.05845
G1 X143.37 Y98.738 E4.07306
G1 X143.924 Y99.429 E4.14375
G1 X144.028 Y99.568 E4.15761
G1 X144.521 Y100.283 E4.22694
G1 X144.637 Y100.467 E4.2443
G1 X145.08 Y101.223 E4.31425
G1 X145.157 Y101.365 E4.32714
G1 X145.558 Y102.18 E4.39965
G1 X145.619 Y102.318 E4.41169
G1 X145.955 Y103.149 E4.48324
G1 X146.021 Y103.333 E4.49884
G1 X146.289 Y104.167 E4.56877
G1 X146.335 Y104.329 E4.58221
G1 X146.547 Y105.203 E4.654
G1 X146.58 Y105.361 E4.66689
G1 X146.728 Y106.252 E4.73899
G1 X146.751 Y106.434 E4.75363
G1 X146.834 Y107.323 E4.8249
G1 X146.842 Y107.475 E4.83705
G1 X146.863 Y108.208 E4.89559
G1 X146.863 Y126.273 E6.33761
G1 X146.827 Y127.279 E6.41797
G1 X146.817 Y127.414 E6.42877
G1 X146.715 Y128.331 E6.50242
G1 X146.69 Y128.506 E6.51654
G1 X146.528 Y129.384 E6.5878
G1 X146.498 Y129.518 E6.59877
G1 X146.267 Y130.403 E6.67178
G1 X146.215 Y130.575 E6.68612
G1 X145.928 Y131.417 E6.75713
G1 X145.865 Y131.583 E6.7713
G1 X145.524 Y132.386 E6.84094
G1 X145.443 Y132.561 E6.85633
G1 X144.966 Y133.478 E6.93884
G1 X144.487 Y134.265 E7.01239
G1 X144.387 Y134.416 E7.02684
G1 X143.775 Y135.263 E7.11026
G1 X143.09 Y136.078 E7.19524
G1 X142.451 Y136.746 E7.26903
G1 X141.754 Y137.393 E7.34495
G1 X141.621 Y137.507 E7.35893
G1 X140.925 Y138.065 E7.43014
G1 X140.786 Y138.169 E7.444
G1 X140.071 Y138.662 E7.51332
G1 X139.887 Y138.778 E7.53068
G1 X139.131 Y139.221 E7.60063
G1 X138.989 Y139.298 E7.61352
G1 X138.044 Y139.757 E7.69739
G1 X137.189 Y140.102 E7.77098
G1 X137.026 Y140.16 E7.78479
G1 X136.183 Y140.431 E7.85548
G1 X136.019 Y140.477 E7.86907
G1 X135.147 Y140.689 E7.94071
G1 X134.985 Y140.722 E7.9539
G1 X134.092 Y140.87 E8.02616
G1 X133.915 Y140.893 E8.04041
G1 X133.021 Y140.976 E8.11208
G1 X132.879 Y140.983 E8.12343
G1 X132.138 Y141.004 E8.1826
G1 X127.612 Y141.003 E8.54388
G1 X126.682 Y140.97 E8.61817
G1 X126.017 Y140.988 E8.67127
G1 X125.624 Y141.038 E8.70289
G1 X125.196 Y141.109 E8.73753
G1 X125.021 Y141.131 E8.7516
G1 X123.983 Y141.221 E8.83477
G1 X123.246 Y141.242 E8.89363
G1 X116.874 Y141.244 E9.40227
G1 X115.949 Y141.327 E9.4764
G1 X115.867 Y141.34 E9.48303
G1 X115.384 Y141.41 E9.52199
G1 X114.604 Y141.501 E9.58467
G1 X114.115 Y141.545 E9.62386
G1 X113.276 Y141.599 E9.69098
G1 X112.746 Y141.616 E9.7333
G1 X111.895 Y141.62 E9.80124
G1 X111.477 Y141.609 E9.83461
G1 X110.345 Y141.536 E9.92516
G1 X110.345 Y141.523 E9.9262
G1 X109.666 Y141.472 E9.98055
G1 X108.446 Y141.329 E10.07861
G1 X108.095 Y141.272 E10.10699
G1 X107.249 Y141.111 E10.17573
G1 X106.765 Y141.004 E10.2153
G1 X105.965 Y140.805 E10.28111
G1 X105.511 Y140.678 E10.31874
G1 X104.725 Y140.437 E10.38436
G1 X104.211 Y140.262 E10.42771
G1 X103.434 Y139.975 E10.49383
G1 X102.995 Y139.8 E10.53155
G1 X102.279 Y139.492 E10.59377
G1 X101.771 Y139.255 E10.63852
G1 X101.028 Y138.883 E10.70484
G1 X100.59 Y138.649 E10.74448
G1 X99.869 Y138.237 E10.81077
G1 X99.464 Y137.992 E10.84855
G1 X98.796 Y137.562 E10.91197
G1 X98.372 Y137.273 E10.95293
G1 X97.724 Y136.802 E11.01688
G1 X97.269 Y136.451 E11.06275
G1 X96.617 Y135.921 E11.12982
G1 X96.26 Y135.612 E11.16751
G1 X95.654 Y135.06 E11.23294
G1 X95.388 Y134.803 E11.26247
G1 X94.722 Y134.117 E11.33879
G1 X94.334 Y133.679 E11.3855
G1 X94.169 Y133.506 E11.40458
G1 X93.323 Y132.526 E11.50792
G1 X93.087 Y132.226 E11.53839
G1 X92.589 Y131.557 E11.60497
G1 X92.294 Y131.136 E11.646
G1 X91.847 Y130.46 E11.71069
G1 X91.607 Y130.076 E11.74684
G1 X91.182 Y129.354 E11.81372
G1 X90.922 Y128.877 E11.85708
G1 X90.565 Y128.185 E11.91924
G1 X90.334 Y127.702 E11.96198
G1 X90.008 Y126.972 E12.02579
G1 X89.824 Y126.532 E12.06386
G1 X89.504 Y125.695 E12.13539
G1 X89.355 Y125.27 E12.17134
G1 X89.102 Y124.48 E12.23756
G1 X88.96 Y123.996 E12.27782
G1 X88.741 Y123.155 E12.34719
G1 X88.637 Y122.702 E12.3843
G1 X88.482 Y121.944 E12.44605
G1 X88.387 Y121.404 E12.48982
G1 X88.273 Y120.629 E12.55235
G1 X88.207 Y120.06 E12.59808
G1 X88.135 Y119.274 E12.66108
G1 X88.112 Y118.883 E12.69235
G1 X88.087 Y117.944 E12.76733
G1 X88.096 Y117.389 E12.81164
G1 X88.093 Y117.165 E12.82952
G1 X88.131 Y115.802 E12.93836
G1 X88.156 Y115.461 E12.96565
G1 X88.231 Y114.707 E13.02614
G1 X88.3 Y114.17 E13.06936
G1 X88.423 Y113.383 E13.13294
G1 X88.518 Y112.867 E13.17482
G1 X88.69 Y112.059 E13.24077
G1 X88.794 Y111.625 E13.27639
G1 X89.034 Y110.746 E13.34912
G1 X89.168 Y110.302 E13.38615
G1 X89.422 Y109.536 E13.45056
G1 X89.592 Y109.064 E13.49061
G1 X89.881 Y108.326 E13.55388
G1 X90.105 Y107.802 E13.59937
G1 X90.448 Y107.055 E13.66498
G1 X90.661 Y106.622 E13.7035
G1 X91.028 Y105.924 E13.76645
G1 X91.284 Y105.468 E13.80819
G1 X91.693 Y104.783 E13.87188
G1 X91.996 Y104.309 E13.91679
G1 X92.432 Y103.663 E13.979
G1 X92.724 Y103.256 E14.01898
G1 X93.25 Y102.564 E14.08837
G1 X93.51 Y102.243 E14.12134
G1 X94.135 Y101.524 E14.19739
G1 X94.524 Y101.114 E14.2425
G1 X94.638 Y100.985 E14.25625
G1 X95.631 Y99.961 E14.37011
G0 F9000 X96 Y99.622
G1 F1125 X96 Y135.375 E17.22407
G0 F9000 X97.6 Y136.706
G1 F1125 X97.6 Y98.292 E20.29044
G0 F9000 X99.2 Y97.179
G1 F1125 X99.2 Y137.822 E23.53474
G0 F9000 X100.8 Y138.761
G1 F1125 X100.8 Y96.237 E26.92919
G0 F9000 X102.4 Y95.455
G1 F1125 X102.4 Y139.544 E30.44856
G0 F9000 X104 Y140.184
G1 F1125 X104 Y94.815 E34.07011
G0 F9000 X105.6 Y94.297
G1 F1125 X105.6 Y140.702 E37.77436
G0 F9000 X107.2 Y141.1
G1 F1125 X107.2 Y93.901 E41.54199
G0 F9000 X108.8 Y93.623
G1 F1125 X108.8 Y141.37 E45.35336
G0 F9000 X110.4 Y141.539
G1 F1125 X110.4 Y93.465 E49.19083
G0 F9000 X112 Y93.378
G1 F1125 X112 Y141.62 E53.04172
G0 F9000 X113.6 Y141.579
G1 F1125 X113.6 Y93.422 E56.88582
G0 F9000 X115.2 Y93.568
G1 F1125 X115.2 Y141.432 E60.70653
G0 F9000 X116.8 Y141.251
G1 F1125 X116.8 Y93.727 E64.5001
G0 F9000 X118.4 Y93.727
G1 F1125 X118.4 Y141.244 E68.29311
G0 F9000 X120 Y141.244
G1 F1125 X120 Y93.727 E72.08613
G0 F9000 X121.6 Y93.727
G1 F1125 X121.6 Y141.243 E75.87906
G0 F9000 X123.2 Y141.243
G1 F1125 X123.2 Y93.727 E79.67199
G0 F9000 X124.8 Y93.744
G1 F1125 X124.8 Y141.151 E83.45622
G0 F9000 X126.4 Y140.978
G1 F1125 X126.4 Y93.55 E87.24213
G0 F9000 X128 Y93.492
G1 F1125 X128 Y141.003 E91.03466
G0 F9000 X129.6 Y141.003
G1 F1125 X129.6 Y93.492 E94.8272
G0 F9000 X131.2 Y93.492
G1 F1125 X131.2 Y141.003 E98.61973
G0 F9000 X132.8 Y140.986
G1 F1125 X132.8 Y93.519 E102.40875
G0 F9000 X134.4 Y93.671
G1 F1125 X134.4 Y140.819 E106.17231
G0 F9000 X136 Y140.482
G1 F1125 X136 Y94.02 E109.88111
G0 F9000 X137.6 Y94.556
G1 F1125 X137.6 Y139.937 E113.50362
G0 F9000 X139.2 Y139.181
G1 F1125 X139.2 Y95.317 E117.00503
G0 F9000 X140.8 Y96.343
G1 F1125 X140.8 Y138.159 E120.34296
G0 F9000 X142.4 Y136.794
G1 F1125 X142.4 Y97.707 E123.46306
G0 F9000 X144 Y99.531
G1 F1125 X144 Y134.952 E126.29051
G0 F9000 X145.6 Y132.208
G1 F1125 X145.6 Y102.276 E128.67982
G1 F2700 E123.67982
G0 F9000 X146.526 Y101.736
G0 X145.543 Y99.906
G0 X144.761 Y98.772
G0 X143.329 Y97.121
G0 X141.794 Y95.753
G0 X140.689 Y94.965
G0 X138.895 Y93.959
G0 X137.63 Y93.422
G0 X135.634 Y92.823
G0 X134.318 Y92.582
G0 X132.133 Y92.427
G0 X111.547 Y92.325
G0 X108.408 Y92.601
G0 X105.827 Y93.131
G0 X103.241 Y93.956
G0 X100.743 Y95.065
G0 X98.353 Y96.456
G0 X96.178 Y98.059
G0 X95.386 Y98.765
G0 X93.862 Y100.256
G0 X94.4 Y101.244
G1 F2700 E128.67982
G1 F1125 X94.4 Y133.753 E131.27483
G0 F9000 X92.8 Y131.84
G1 F1125 X92.8 Y103.156 E133.56451
G0 F9000 X91.2 Y105.617
G1 F1125 X91.2 Y129.384 E135.46169
G0 F9000 X89.6 Y125.946
G1 F1125 X89.6 Y109.043 E136.81096
G1 F2700 E131.81096
G0 F300 X89.6 Y109.043 Z0.54
G0 F9000 X88.414 Y109.192
G0 X87.748 Y111.402
G0 X87.234 Y114.112
G0 X87.058 Y115.942
G0 X87.052 Y119.004
G0 X87.345 Y121.63
G0 X87.933 Y124.271
G0 X88.557 Y126.204
G0 X89.421 Y128.212
G0 X90.012 Y129.434
G0 X91.199 Y129.383
;TIME_ELAPSED:102.156230
;LAYER:-5
M140 S50
;TYPE:SUPPORT
G1 F2700 E136.81096
G1 F1125 X100.296 Y138.48 E138.09465
G1 X99.868 Y138.236 E138.1438
G1 X99.463 Y137.991 E138.19103
G1 X98.796 Y137.561 E138.27022
G1 X98.371 Y137.272 E138.3215
G1 X97.723 Y136.801 E138.40144
G1 X97.268 Y136.449 E138.45884
G1 X96.616 Y135.92 E138.54261
G1 X96.259 Y135.611 E138.58972
G1 X95.653 Y135.059 E138.67152
G1 X95.387 Y134.802 E138.70842
G1 X94.721 Y134.116 E138.80382
G1 X94.333 Y133.678 E138.86221
G1 X94.168 Y133.505 E138.88606
G1 X93.323 Y132.525 E139.01518
G1 X93.087 Y132.225 E139.05326
G1 X92.589 Y131.556 E139.13648
G1 X92.293 Y131.135 E139.18783
G1 X91.846 Y130.459 E139.2687
G1 X91.607 Y130.075 E139.31383
G1 F2700 E134.31383
G0 F9000 X90.95 Y131.033
G0 X92.497 Y133.198
G0 X94.718 Y135.637
G0 X96.694 Y137.353
G0 X98.476 Y138.597
G0 X99.432 Y139.215
G0 X100.296 Y138.48
G1 F2700 E139.31383
G1 F1125 X100.59 Y138.648 E139.34762
G1 X101.027 Y138.882 E139.39708
G1 X101.771 Y139.254 E139.48008
G1 X102.278 Y139.49 E139.53588
G1 X102.994 Y139.799 E139.61369
G1 X103.053 Y139.822 E139.62001
G1 X89.868 Y126.637 E141.48055
G1 X89.823 Y126.531 E141.49204
G1 X89.504 Y125.693 E141.58151
G1 X89.354 Y125.268 E141.62648
G1 X89.101 Y124.479 E141.70916
G1 X89.091 Y124.447 E141.7125
G1 X105.237 Y140.592 E143.99081
G1 X105.51 Y140.676 E144.01931
G1 X105.964 Y140.804 E144.06638
G1 X106.765 Y141.003 E144.14873
G1 X107.147 Y141.088 E144.18778
G1 X88.605 Y122.546 E146.80425
G1 X88.481 Y121.943 E146.86568
G1 X88.386 Y121.403 E146.92039
G1 X88.302 Y120.828 E146.97837
G1 X108.847 Y141.374 E149.87756
G1 X109.665 Y141.471 E149.95976
G1 X110.344 Y141.522 E150.0277
G1 X110.344 Y141.535 E150.02899
G1 X110.427 Y141.54 E150.03729
G1 X88.133 Y119.245 E153.18329
G1 X88.111 Y118.882 E153.21957
G1 X88.086 Y117.943 E153.3133
G1 X88.088 Y117.787 E153.32887
G1 X111.92 Y141.618 E156.69175
G1 X112.746 Y141.615 E156.77417
G1 X113.275 Y141.598 E156.82698
G1 X113.311 Y141.595 E156.83058
G1 X88.113 Y116.398 E160.38622
G1 X88.13 Y115.801 E160.44582
G1 X88.155 Y115.459 E160.48003
G1 X88.194 Y115.064 E160.51964
G1 X114.627 Y141.497 E164.24962
G1 X115.383 Y141.409 E164.32556
G1 X115.866 Y141.339 E164.37426
G1 X115.88 Y141.336 E164.37569
G1 X88.355 Y113.811 E168.25976
G1 X88.422 Y113.382 E168.30309
G1 X88.517 Y112.866 E168.35544
G1 X88.571 Y112.613 E168.38125
G1 X117.2 Y141.242 E172.42111
G1 X118.615 Y141.242 E172.5623
G1 X88.837 Y111.464 E176.7643
G1 X89.033 Y110.744 E176.83876
G1 X89.149 Y110.362 E176.87859
G1 X120.029 Y141.242 E181.23609
G1 X121.442 Y141.241 E181.37708
G1 X89.504 Y109.303 E185.88388
G1 X89.592 Y109.063 E185.90939
G1 X89.881 Y108.325 E185.98847
G1 X89.898 Y108.283 E185.99299
G1 X122.856 Y141.241 E190.64372
G1 X123.245 Y141.241 E190.68253
G1 X123.982 Y141.22 E190.7561
G1 X124.228 Y141.198 E190.78075
G1 X90.332 Y107.303 E195.56377
G1 X90.448 Y107.053 E195.59127
G1 X90.66 Y106.621 E195.63928
G1 X90.8 Y106.356 E195.66919
G1 X125.5 Y141.057 E200.5658
G1 X125.623 Y141.037 E200.57824
G1 X126.017 Y140.987 E200.61787
G1 X126.681 Y140.969 E200.68415
G1 X126.832 Y140.974 E200.69922
G1 X91.298 Y105.44 E205.71345
G1 X91.692 Y104.782 E205.78998
G1 X91.833 Y104.561 E205.81613
G1 X128.274 Y141.002 E210.95835
G1 X129.688 Y141.002 E211.09944
G1 X92.398 Y103.712 E216.36146
G1 X92.432 Y103.662 E216.3675
G1 X92.723 Y103.255 E216.41742
G1 X92.996 Y102.896 E216.46242
G1 X131.103 Y141.002 E221.83966
G1 X132.137 Y141.003 E221.94283
G1 X132.507 Y140.992 E221.97977
G1 X93.624 Y102.109 E227.46658
G1 X94.135 Y101.522 E227.54424
G1 X94.289 Y101.36 E227.56654
G1 X133.829 Y140.9 E233.14606
G1 X133.914 Y140.892 E233.15458
G1 X134.092 Y140.869 E233.17249
G1 X134.985 Y140.721 E233.26281
G1 X135.05 Y140.707 E233.26944
G1 X94.977 Y100.634 E238.92417
G1 X95.631 Y99.96 E239.01788
G1 X95.676 Y99.919 E239.02396
G1 X136.185 Y140.428 E244.74021
G1 X137.025 Y140.159 E244.82822
G1 X137.189 Y140.101 E244.84558
G1 X137.248 Y140.077 E244.85194
G1 X96.421 Y99.249 E250.61314
G1 X96.466 Y99.208 E250.61921
G1 X96.847 Y98.888 E250.66886
G1 X97.196 Y98.61 E250.71338
G1 X138.244 Y139.658 E256.50569
G1 X138.988 Y139.297 E256.58821
G1 X139.131 Y139.22 E256.60441
G1 X139.186 Y139.186 E256.61087
G1 X97.998 Y97.998 E262.42294
G1 X98.536 Y97.616 E262.48878
G1 X98.831 Y97.417 E262.52428
G1 X140.072 Y138.658 E268.34383
G1 X140.784 Y138.168 E268.43007
G1 X140.905 Y138.077 E268.44518
G1 X99.695 Y96.867 E274.26036
G1 X100.109 Y96.62 E274.30846
G1 X100.594 Y96.351 E274.3638
G1 X141.689 Y137.446 E280.16275
G1 X141.752 Y137.392 E280.17103
G1 X142.425 Y136.768 E280.2626
G1 X101.526 Y95.869 E286.03389
G1 X102.109 Y95.585 E286.0986
G1 X102.487 Y95.416 E286.13991
G1 X143.116 Y136.045 E291.87311
G1 X143.762 Y135.277 E291.97324
G1 X103.488 Y95.003 E297.65634
G1 X103.684 Y94.927 E297.67731
G1 X104.463 Y94.649 E297.75984
G1 X104.528 Y94.628 E297.76666
G1 X144.357 Y134.457 E303.38696
G1 X144.386 Y134.416 E303.39197
G1 X144.486 Y134.264 E303.41013
G1 X144.899 Y133.585 E303.48943
G1 X105.609 Y94.295 E309.03367
G1 X105.686 Y94.272 E309.04169
G1 X106.179 Y94.138 E309.09267
G1 X106.734 Y94.006 E309.14959
G1 X145.39 Y132.662 E314.60437
