;FLAVOR:Marlin
;TIME:7617
;Filament used: 5.43561m
;Layer height: 0.2
;MINX:63.741
;MINY:72.232
;MINZ:0.24
;MAXX:171.261
;MAXY:162.767
;MAXZ:25.69
;Generated with Cura_SteamEngine 4.5.0
M140 S50
M105
M190 S50
M104 S200
M105
M109 S200
M82 ;absolute extrusion mode
; Ender 3 Custom Start G-code
G92 E0 ; Reset Extruder
G28 ; Home all axes
G1 Z2.0 F3000 ; Move Z Axis up little to prevent scratching of Heat Bed
G1 X0.1 Y20 Z0.3 F5000.0 ; Move to start position
G1 X0.1 Y200.0 Z0.3 F1500.0 E15 ; Draw the first line
G1 X0.4 Y200.0 Z0.3 F5000.0 ; Move to side a little
G1 X0.4 Y20 Z0.3 F1500.0 E30 ; Draw the second line
G92 E0 ; Reset Extruder
G1 Z2.0 F3000 ; Move Z Axis up little to prevent scratching of Heat Bed
G1 X5 Y20 Z0.3 F5000.0 ; Move over to prevent blob squish
G92 E0
G92 E0
G1 F2700 E-5
;LAYER_COUNT:123
;LAYER:-6
M107
G0 F9000 X77.54 Y89.409 Z0.24
;TYPE:SUPPORT-INTERFACE
G1 F2700 E0
G1 F1125 X78.372 Y88.71 E0.08674
G1 X78.944 Y88.254 E0.14513
G1 X79.834 Y87.579 E0.2343
G1 X80.437 Y87.146 E0.29356
G1 X81.326 Y86.539 E0.37949
G1 X81.948 Y86.137 E0.4386
G1 X82.894 Y85.559 E0.5271
G1 X83.526 Y85.194 E0.58536
G1 X84.531 Y84.649 E0.67662
G1 X85.172 Y84.32 E0.73413
G1 X86.161 Y83.844 E0.82174
G1 X86.916 Y83.506 E0.88777
G1 X87.902 Y83.093 E0.97311
G1 X88.492 Y82.862 E1.02368
G1 X89.639 Y82.446 E1.12108
G1 X90.258 Y82.237 E1.17323
G1 X91.232 Y81.936 E1.25461
G1 X92.026 Y81.713 E1.32044
G1 X93.095 Y81.442 E1.40847
G1 X93.811 Y81.279 E1.46709
G1 X94.872 Y81.064 E1.5535
G1 X95.59 Y80.937 E1.61171
G1 X96.695 Y80.771 E1.7009
G1 X97.432 Y80.68 E1.76018
G1 X98.514 Y80.571 E1.84699
G1 X99.218 Y80.519 E1.90334
G1 X100.347 Y80.463 E1.99357
G1 X101.1 Y80.444 E2.0537
G1 X102.188 Y80.445 E2.14054
G1 X102.894 Y80.462 E2.19692
G1 X103.307 Y80.482 E2.22992
G1 X103.977 Y80.473 E2.28341
G1 X104.653 Y80.378 E2.3379
G1 X105.312 Y80.198 E2.39243
G1 X105.943 Y79.937 E2.44694
G1 X106.535 Y79.598 E2.5014
G1 X107.078 Y79.189 E2.55566
G1 X108.322 Y78.001 E2.69297
G1 X108.777 Y77.614 E2.74065
G1 X109.14 Y77.32 E2.77794
G1 X110.015 Y76.659 E2.86547
G1 X110.552 Y76.301 E2.91699
G1 X110.965 Y76.041 E2.95595
G1 X111.936 Y75.48 E3.04546
G1 X112.454 Y75.219 E3.09177
G1 X112.914 Y75 E3.13243
G1 X113.789 Y74.621 E3.20855
G1 X113.945 Y74.559 E3.22195
G1 X114.556 Y74.337 E3.27384
G1 X114.948 Y74.205 E3.30686
G1 X116.018 Y73.889 E3.39592
G1 X116.609 Y73.75 E3.44438
G1 X117.071 Y73.653 E3.48207
G1 X118.032 Y73.485 E3.55994
G1 X118.188 Y73.463 E3.57252
G1 X118.777 Y73.396 E3.61984
G1 X119.273 Y73.353 E3.65958
G1 X120.354 Y73.297 E3.74598
G1 X120.98 Y73.302 E3.79595
G1 X121.507 Y73.32 E3.83805
G1 X122.558 Y73.391 E3.92213
G1 X123.106 Y73.459 E3.96621
G1 X123.6 Y73.536 E4.00612
G1 X123.6 Y73.532 E4.00644
G1 X123.618 Y73.535 E4.0079
G1 X124.719 Y73.741 E4.09731
G1 X125.384 Y73.907 E4.15202
G1 X125.828 Y74.03 E4.1888
G1 X126.86 Y74.355 E4.27517
G1 X127.447 Y74.579 E4.32532
G1 X127.849 Y74.741 E4.35991
G1 X128.882 Y75.208 E4.45041
G1 X129.402 Y75.479 E4.49722
G1 X129.849 Y75.727 E4.53802
G1 X130.772 Y76.282 E4.62399
G1 X131.264 Y76.617 E4.67151
G1 X131.74 Y76.961 E4.71839
G1 X132.577 Y77.613 E4.80308
G1 X132.988 Y77.97 E4.84653
G1 X133.355 Y78.305 E4.8862
G1 X134.144 Y79.082 E4.97459
G1 X134.593 Y79.578 E5.028
G1 X134.917 Y79.956 E5.06774
G1 X135.574 Y80.782 E5.15199
G1 X135.925 Y81.277 E5.20043
G1 X136.211 Y81.705 E5.24152
G1 X136.722 Y82.523 E5.31851
G1 X136.821 Y82.693 E5.33421
G1 X137.196 Y83.249 E5.38775
G1 X137.646 Y83.762 E5.44222
G1 X138.158 Y84.214 E5.49673
G1 X138.725 Y84.601 E5.55153
G1 X139.523 Y84.987 E5.62229
G1 X140.261 Y85.271 E5.68542
G1 X140.784 Y85.503 E5.73109
G1 X141.985 Y86.095 E5.83797
G1 X142.494 Y86.379 E5.8845
G1 X143.672 Y87.102 E5.99483
G1 X144.147 Y87.428 E6.04082
G1 X145.234 Y88.244 E6.14931
G1 X145.667 Y88.603 E6.19421
G1 X146.669 Y89.512 E6.3022
G1 X147.077 Y89.919 E6.34821
G1 X148.027 Y90.957 E6.46053
G1 X148.381 Y91.384 E6.5048
G1 X149.179 Y92.435 E6.61014
G1 X149.507 Y92.911 E6.65628
G1 X150.236 Y94.08 E6.76626
G1 X150.503 Y94.557 E6.80989
G1 X151.122 Y95.788 E6.91988
G1 X151.402 Y96.434 E6.97608
G1 X151.687 Y97.042 E7.02968
G1 X152.053 Y97.618 E7.08416
G1 X152.488 Y98.144 E7.13864
G1 X152.987 Y98.61 E7.19314
G1 X153.54 Y99.01 E7.24762
G1 X154.14 Y99.337 E7.30217
G1 X154.777 Y99.586 E7.35677
G1 X155.506 Y99.764 E7.41667
G1 X156.102 Y99.879 E7.46512
G1 X157.007 Y100.091 E7.53932
G1 X157.183 Y100.139 E7.55388
G1 X157.964 Y100.378 E7.61907
G1 X158.322 Y100.5 E7.64927
G1 X159.244 Y100.849 E7.72796
G1 X159.371 Y100.903 E7.73898
G1 X160.08 Y101.226 E7.80117
G1 X160.502 Y101.436 E7.83879
G1 X161.437 Y101.943 E7.9237
G1 X162.102 Y102.358 E7.98627
G1 X162.44 Y102.585 E8.01877
G1 X163.227 Y103.148 E8.09601
G1 X163.347 Y103.241 E8.10813
G1 X164.037 Y103.813 E8.17967
G1 X164.227 Y103.978 E8.19976
G1 X164.357 Y104.098 E8.21388
G1 X165.118 Y104.824 E8.29784
G1 X165.655 Y105.402 E8.36082
G1 X165.898 Y105.679 E8.39023
G1 X166.617 Y106.563 E8.48119
G1 X167.083 Y107.217 E8.54529
G1 X167.275 Y107.504 E8.57285
G1 X167.866 Y108.462 E8.66271
G1 X168.289 Y109.257 E8.73459
G1 X168.487 Y109.666 E8.77086
G1 X168.923 Y110.655 E8.85714
G1 X169.172 Y111.327 E8.91435
G1 X169.303 Y111.71 E8.94666
G1 X169.58 Y112.621 E9.02267
G1 X169.623 Y112.782 E9.03597
G1 X169.802 Y113.55 E9.09892
G1 X169.89 Y114.001 E9.1356
G1 X170.039 Y114.905 E9.20873
G1 X170.063 Y115.092 E9.22378
G1 X170.139 Y115.864 E9.2857
G1 X170.167 Y116.309 E9.32129
G1 X170.197 Y117.274 E9.39836
G1 X170.196 Y117.418 E9.40986
G1 X170.167 Y118.222 E9.47408
G1 X170.144 Y118.591 E9.50359
G1 X170.047 Y119.568 E9.58196
G1 X170.026 Y119.725 E9.59461
G1 X169.886 Y120.554 E9.66172
G1 X169.815 Y120.911 E9.69077
G1 X169.594 Y121.852 E9.76793
G1 X169.549 Y122.021 E9.78189
G1 X169.302 Y122.82 E9.84865
G1 X169.181 Y123.175 E9.87859
G1 X168.777 Y124.223 E9.96824
G1 X168.475 Y124.885 E10.02633
G1 X168.296 Y125.251 E10.05885
G1 X167.779 Y126.216 E10.14624
G1 X167.317 Y126.956 E10.21588
G1 X167.076 Y127.315 E10.25039
G1 X166.531 Y128.072 E10.32485
G1 X166.429 Y128.204 E10.33817
G1 X165.872 Y128.876 E10.40784
G1 X165.599 Y129.183 E10.44063
G1 X164.863 Y129.955 E10.52577
G1 X164.29 Y130.488 E10.58824
G1 X164.008 Y130.735 E10.61817
G1 X163.14 Y131.441 E10.70748
G1 X162.669 Y131.778 E10.75371
G1 X162.15 Y132.202 E10.80721
G1 X161.679 Y132.697 E10.86175
G1 X161.275 Y133.248 E10.91629
G1 X160.943 Y133.844 E10.97075
G1 X160.69 Y134.478 E11.02524
G1 X160.519 Y135.139 E11.07974
G1 X160.432 Y135.81 E11.13375
G1 X160.421 Y136.157 E11.16146
G1 X160.421 Y146.595 E11.99467
G1 X160.385 Y147.601 E12.07502
G1 X160.375 Y147.736 E12.08583
G1 X160.274 Y148.647 E12.15899
G1 X160.248 Y148.828 E12.17359
G1 X160.086 Y149.706 E12.24486
G1 X160.056 Y149.84 E12.25582
G1 X159.825 Y150.725 E12.32883
G1 X159.773 Y150.897 E12.34317
G1 X159.486 Y151.739 E12.41418
G1 X159.424 Y151.903 E12.42818
G1 X159.086 Y152.702 E12.49743
G1 X159.001 Y152.883 E12.51339
G1 X158.6 Y153.663 E12.5834
G1 X158.519 Y153.808 E12.59666
G1 X158.049 Y154.581 E12.66887
G1 X157.945 Y154.738 E12.68391
G1 X157.434 Y155.452 E12.75399
G1 X157.321 Y155.6 E12.76886
G1 X156.648 Y156.4 E12.85231
G1 X156.009 Y157.068 E12.9261
G1 X155.324 Y157.704 E13.00071
G1 X155.176 Y157.831 E13.01628
G1 X154.483 Y158.387 E13.0872
G1 X154.344 Y158.491 E13.10106
G1 X153.629 Y158.984 E13.17039
G1 X153.445 Y159.1 E13.18775
G1 X152.689 Y159.543 E13.25769
G1 X152.547 Y159.62 E13.27059
G1 X151.602 Y160.079 E13.35445
G1 X150.751 Y160.423 E13.42772
G1 X150.584 Y160.482 E13.44186
G1 X149.741 Y160.753 E13.51254
G1 X149.577 Y160.799 E13.52614
G1 X148.705 Y161.011 E13.59777
G1 X148.543 Y161.044 E13.61097
G1 X147.65 Y161.192 E13.68323
G1 X147.473 Y161.215 E13.69747
G1 X146.579 Y161.298 E13.76914
G1 X146.437 Y161.305 E13.78049
G1 X145.696 Y161.326 E13.83967
G1 X139.307 Y161.326 E14.34966
G1 X138.529 Y161.384 E14.41194
G1 X137.728 Y161.504 E14.47659
G1 X137.137 Y161.572 E14.52408
G1 X136.134 Y161.656 E14.60442
G1 X135.514 Y161.686 E14.65397
G1 X134.493 Y161.702 E14.73548
G1 X134.009 Y161.691 E14.77413
G1 X133.075 Y161.641 E14.84879
G1 X132.895 Y161.625 E14.86322
G1 X132.746 Y161.605 E14.87522
G1 X132.746 Y161.602 E14.87546
G1 X132.089 Y161.55 E14.92806
G1 X130.75 Y161.384 E15.03577
G1 X130.233 Y161.295 E15.07764
G1 X129.176 Y161.074 E15.16384
G1 X128.478 Y160.899 E15.22128
G1 X127.471 Y160.61 E15.30491
G1 X126.81 Y160.393 E15.36045
G1 X125.789 Y160.018 E15.44727
G1 X125.149 Y159.755 E15.5025
G1 X124.158 Y159.304 E15.58942
G1 X123.535 Y158.991 E15.64507
G1 X122.601 Y158.479 E15.73009
G1 X122.002 Y158.122 E15.78576
G1 X121.116 Y157.551 E15.8699
G1 X120.559 Y157.162 E15.92413
G1 X119.703 Y156.517 E16.00968
G1 X119.158 Y156.073 E16.0658
G1 X118.338 Y155.353 E16.1529
G1 X117.937 Y154.975 E16.19689
G1 X117.278 Y154.309 E16.27168
G1 X117.167 Y154.189 E16.28473
G1 X116.683 Y153.726 E16.3382
G1 X116.133 Y153.321 E16.39272
G1 X115.537 Y152.988 E16.44722
G1 X114.904 Y152.733 E16.50169
G1 X114.243 Y152.561 E16.55621
G1 X113.565 Y152.473 E16.61079
G1 X112.883 Y152.471 E16.66523
G1 X112.21 Y152.555 E16.71937
G1 X111.765 Y152.658 E16.75583
G1 X111.189 Y152.819 E16.80357
G1 X110.155 Y153.081 E16.88872
G1 X109.458 Y153.24 E16.94578
G1 X108.378 Y153.459 E17.03375
G1 X107.66 Y153.586 E17.09195
G1 X106.526 Y153.756 E17.18348
G1 X105.844 Y153.84 E17.23834
G1 X104.767 Y153.949 E17.32475
G1 X104.019 Y154.006 E17.38463
G1 X102.89 Y154.062 E17.47486
G1 X102.151 Y154.08 E17.53387
G1 X101.062 Y154.079 E17.6208
G1 X100.347 Y154.062 E17.67789
G1 X99.212 Y154.005 E17.7686
G1 X98.445 Y153.946 E17.83001
G1 X97.417 Y153.843 E17.91248
G1 X96.631 Y153.743 E17.97573
G1 X95.542 Y153.577 E18.06366
G1 X94.837 Y153.452 E18.12081
G1 X93.795 Y153.241 E18.20568
G1 X93.05 Y153.07 E18.26669
G1 X91.978 Y152.797 E18.355
G1 X91.273 Y152.599 E18.41345
G1 X90.209 Y152.269 E18.50237
G1 X89.556 Y152.049 E18.55738
G1 X88.456 Y151.646 E18.65089
G1 X87.827 Y151.4 E18.7048
G1 X86.828 Y150.979 E18.79134
G1 X86.103 Y150.65 E18.85489
G1 X85.161 Y150.197 E18.93833
G1 X84.447 Y149.83 E19.00241
G1 X83.506 Y149.316 E19.088
G1 X82.862 Y148.944 E19.14737
G1 X81.942 Y148.381 E19.23347
G1 X81.306 Y147.968 E19.294
G1 X80.392 Y147.345 E19.3823
G1 X79.779 Y146.903 E19.44262
G1 X78.92 Y146.25 E19.52876
G1 X78.338 Y145.784 E19.58827
G1 X77.508 Y145.086 E19.67484
G1 X76.986 Y144.625 E19.73043
G1 X76.143 Y143.841 E19.82233
G1 X75.612 Y143.32 E19.88171
G1 X74.841 Y142.53 E19.96982
G1 X74.347 Y141.997 E20.02783
G1 X73.643 Y141.196 E20.11296
G1 X73.149 Y140.606 E20.17438
G1 X72.453 Y139.729 E20.26376
G1 X72.045 Y139.191 E20.31766
G1 X71.352 Y138.221 E20.41282
G1 X70.955 Y137.636 E20.46925
G1 X70.366 Y136.72 E20.55618
G1 X69.99 Y136.102 E20.61393
G1 X69.457 Y135.178 E20.69907
G1 X69.1 Y134.524 E20.75855
G1 X68.602 Y133.551 E20.8458
G1 X68.271 Y132.861 E20.90689
G1 X67.838 Y131.9 E20.99103
G1 X67.53 Y131.167 E21.0545
G1 X67.143 Y130.176 E21.13942
G1 X66.892 Y129.488 E21.19788
G1 X66.536 Y128.422 E21.28759
G1 X66.335 Y127.772 E21.3419
G1 X66.033 Y126.7 E21.4308
G1 X65.843 Y125.947 E21.4928
G1 X65.604 Y124.9 E21.57852
G1 X65.453 Y124.148 E21.63975
G1 X65.269 Y123.101 E21.7246
G1 X65.154 Y122.325 E21.78723
G1 X65.021 Y121.267 E21.87234
G1 X64.946 Y120.499 E21.93394
G1 X64.868 Y119.454 E22.01759
G1 X64.832 Y118.707 E22.07729
G1 X64.805 Y117.649 E22.16177
G1 X64.805 Y116.904 E22.22124
G1 X64.833 Y115.796 E22.30971
G1 X64.869 Y115.065 E22.36813
G1 X64.955 Y113.917 E22.46003
G1 X65.023 Y113.24 E22.51434
G1 X65.16 Y112.149 E22.60211
G1 X65.278 Y111.371 E22.66493
G1 X65.467 Y110.304 E22.75143
G1 X65.617 Y109.567 E22.81146
G1 X65.866 Y108.484 E22.90017
G1 X66.027 Y107.846 E22.95269
G1 X66.323 Y106.789 E23.04031
G1 X66.545 Y106.069 E23.10046
G1 X66.898 Y105.018 E23.18896
G1 X67.149 Y104.325 E23.24779
G1 X67.56 Y103.282 E23.33728
G1 X67.849 Y102.598 E23.39655
G1 X68.289 Y101.623 E23.48194
G1 X68.606 Y100.965 E23.54024
G1 X69.139 Y99.929 E23.63324
G1 X69.477 Y99.309 E23.68961
G1 X70.003 Y98.395 E23.77379
G1 X70.385 Y97.77 E23.83226
G1 X70.98 Y96.847 E23.91992
G1 X71.409 Y96.217 E23.98076
G1 X72.017 Y95.37 E24.06399
G1 X72.528 Y94.696 E24.13151
G1 X73.216 Y93.836 E24.21942
G1 X73.673 Y93.293 E24.27607
G1 X74.408 Y92.463 E24.36457
G1 X74.918 Y91.915 E24.42433
G1 X75.809 Y91.008 E24.52582
G1 X76.191 Y90.637 E24.56832
G1 X76.976 Y89.908 E24.65384
G1 X77.54 Y89.409 E24.71395
G0 F9000 X76.8 Y90.071
G1 F1125 X76.8 Y144.452 E29.05488
G0 F9000 X78.4 Y145.833
G1 F1125 X78.4 Y88.687 E33.61652
G0 F9000 X80 Y87.459
G1 F1125 X80 Y147.062 E38.37429
G0 F9000 X81.6 Y148.158
G1 F1125 X81.6 Y86.361 E43.30719
G0 F9000 X83.2 Y85.382
G1 F1125 X83.2 Y149.139 E48.39655
G0 F9000 X84.8 Y150.011
G1 F1125 X84.8 Y84.51 E53.62512
G0 F9000 X86.4 Y83.737
G1 F1125 X86.4 Y150.784 E58.97711
G0 F9000 X88 Y151.467
G1 F1125 X88 Y83.054 E64.43813
G0 F9000 X89.6 Y82.46
G1 F1125 X89.6 Y152.063 E69.99414
G0 F9000 X91.2 Y152.576
G1 F1125 X91.2 Y81.945 E75.63221
G0 F9000 X92.8 Y81.516
G1 F1125 X92.8 Y153.006 E81.33885
G0 F9000 X94.4 Y153.363
G1 F1125 X94.4 Y81.159 E87.10249
G0 F9000 X96 Y80.875
G1 F1125 X96 Y153.646 E92.91138
G0 F9000 X97.6 Y153.861
G1 F1125 X97.6 Y80.663 E98.75436
G0 F9000 X99.2 Y80.52
G1 F1125 X99.2 Y154.004 E104.62018
G0 F9000 X100.8 Y154.072
G1 F1125 X100.8 Y80.451 E110.49692
G0 F9000 X102.4 Y80.451
G1 F1125 X102.4 Y154.074 E116.37383
G0 F9000 X104 Y154.007
G1 F1125 X104 Y80.469 E122.24395
G0 F9000 X105.6 Y80.078
G1 F1125 X105.6 Y153.865 E128.13395
G0 F9000 X107.2 Y153.655
G1 F1125 X107.2 Y79.072 E134.08748
G0 F9000 X108.8 Y77.595
G1 F1125 X108.8 Y153.374 E140.13649
G0 F9000 X110.4 Y153.019
G1 F1125 X110.4 Y76.402 E146.25239
G0 F9000 X112 Y75.447
G1 F1125 X112 Y152.604 E152.4114
G0 F9000 X113.6 Y152.477
G1 F1125 X113.6 Y74.702 E158.61973
G0 F9000 X115.2 Y74.13
G1 F1125 X115.2 Y152.852 E164.90366
G0 F9000 X116.8 Y153.837
G1 F1125 X116.8 Y73.709 E171.29983
G0 F9000 X118.4 Y73.438
G1 F1125 X118.4 Y155.407 E177.84295
G0 F9000 X120 Y156.74
G1 F1125 X120 Y73.315 E184.50229
G0 F9000 X121.6 Y73.327
G1 F1125 X121.6 Y157.862 E191.25024
G0 F9000 X123.2 Y158.807
G1 F1125 X123.2 Y73.474 E198.06189
G0 F9000 X124.8 Y73.762
G1 F1125 X124.8 Y159.596 E204.91353
G0 F9000 X126.4 Y160.242
G1 F1125 X126.4 Y74.211 E211.7809
G0 F9000 X128 Y74.81
G1 F1125 X128 Y160.761 E218.64188
G0 F9000 X129.6 Y161.162
G1 F1125 X129.6 Y75.589 E225.47269
G0 F9000 X131.2 Y76.574
G1 F1125 X131.2 Y161.439 E232.24698
G0 F9000 X132.8 Y161.612
G1 F1125 X132.8 Y77.807 E238.93665
G0 F9000 X134.4 Y79.365
G1 F1125 X134.4 Y161.699 E245.50891
G0 F9000 X136 Y161.663
G1 F1125 X136 Y81.39 E251.91665
G0 F9000 X137.6 Y83.71
G1 F1125 X137.6 Y161.519 E258.1277
G0 F9000 X139.2 Y161.334
G1 F1125 X139.2 Y84.831 E264.2345
G0 F9000 X140.8 Y85.511
G1 F1125 X140.8 Y161.326 E270.28638
G0 F9000 X142.4 Y161.326
G1 F1125 X142.4 Y86.327 E276.27312
G0 F9000 X144 Y87.328
G1 F1125 X144 Y161.326 E282.17996
G0 F9000 X145.6 Y161.326
G1 F1125 X145.6 Y88.548 E287.98942
G0 F9000 X147.2 Y90.054
G1 F1125 X147.2 Y161.241 E293.67187
G0 F9000 X148.8 Y160.988
G1 F1125 X148.8 Y91.936 E299.1839
G0 F9000 X150.4 Y94.373
G1 F1125 X150.4 Y160.542 E304.4658
G0 F9000 X152 Y159.886
G1 F1125 X152 Y97.535 E309.44293
G0 F9000 X153.6 Y99.043
G1 F1125 X153.6 Y159.003 E314.22919
G0 F9000 X155.2 Y157.811
G1 F1125 X155.2 Y99.69 E318.86866
G0 F9000 X156.8 Y100.043
G1 F1125 X156.8 Y156.22 E323.35295
G0 F9000 X158.4 Y154.004
G1 F1125 X158.4 Y100.53 E327.62148
G0 F9000 X160 Y101.19
G1 F1125 X160 Y150.055 E331.52209
G1 F2700 E326.52209
G0 F9000 X161.127 Y149.925
G0 X161.403 Y148.049
G0 X162.171 Y133.825
G0 X161.6 Y132.805
G1 F2700 E331.52209
G1 F1125 X161.6 Y102.045 E333.97749
