;FLAVOR:Marlin
;TIME:2387
;Filament used: 1.58342m
;Layer height: 0.2
;MINX:81.854
;MINY:92.323
;MINZ:0.24
;MAXX:153.059
;MAXY:142.67
;MAXZ:21.69
;Generated with Cura_SteamEngine 4.5.0
M140 S50
M105
M190 S50
M104 S200
M105
M109 S200
M82 ;absolute extrusion mode
; Ender 3 Custom Start G-code
G92 E0 ; Reset Extruder
G28 ; Home all axes
G1 Z2.0 F3000 ; Move Z Axis up little to prevent scratching of Heat Bed
G1 X0.1 Y20 Z0.3 F5000.0 ; Move to start position
G1 X0.1 Y200.0 Z0.3 F1500.0 E15 ; Draw the first line
G1 X0.4 Y200.0 Z0.3 F5000.0 ; Move to side a little
G1 X0.4 Y20 Z0.3 F1500.0 E30 ; Draw the second line
G92 E0 ; Reset Extruder
G1 Z2.0 F3000 ; Move Z Axis up little to prevent scratching of Heat Bed
G1 X5 Y20 Z0.3 F5000.0 ; Move over to prevent blob squish
G92 E0
G92 E0
G1 F2700 E-5
;LAYER_COUNT:103
;LAYER:-6
M107
G0 F9000 X89.894 Y101.88 Z0.24
;TYPE:SUPPORT-INTERFACE
G1 F2700 E0
G1 F1125 X90.249 Y101.571 E0.03757
G1 X91.143 Y100.847 E0.1294
G1 X91.506 Y100.577 E0.16551
G1 X92.512 Y99.888 E0.26284
G1 X92.888 Y99.652 E0.29828
G1 X93.85 Y99.095 E0.38701
G1 X94.276 Y98.87 E0.42547
G1 X95.332 Y98.364 E0.51894
G1 X95.774 Y98.175 E0.55731
G1 X96.834 Y97.765 E0.64804
G1 X97.28 Y97.613 E0.68565
G1 X98.345 Y97.293 E0.77442
G1 X98.816 Y97.171 E0.81326
G1 X99.992 Y96.914 E0.90934
G1 X100.462 Y96.832 E0.94743
G1 X101.607 Y96.676 E1.03967
G1 X102.057 Y96.634 E1.07575
G1 X103.157 Y96.569 E1.16371
G1 X103.65 Y96.559 E1.20307
G1 X104.829 Y96.58 E1.2972
G1 X105.325 Y96.61 E1.33686
G1 X106.369 Y96.707 E1.42056
G1 X106.785 Y96.762 E1.45405
G1 X107.273 Y96.837 E1.49347
G1 X107.278 Y96.819 E1.49496
G1 X107.481 Y96.842 E1.51127
G1 X108.163 Y96.833 E1.56571
G1 X108.84 Y96.739 E1.62027
G1 X109.502 Y96.557 E1.67507
G1 X110.293 Y96.213 E1.74393
G1 X110.698 Y95.998 E1.78053
G1 X111.178 Y95.76 E1.8233
G1 X112.029 Y95.37 E1.89802
G1 X112.576 Y95.142 E1.94533
G1 X113.463 Y94.804 E2.0211
G1 X114.011 Y94.615 E2.06737
G1 X114.789 Y94.37 E2.13248
G1 X115.386 Y94.202 E2.18199
G1 X116.27 Y93.983 E2.25468
G1 X116.856 Y93.858 E2.30251
G1 X117.72 Y93.699 E2.37264
G1 X118.256 Y93.617 E2.41592
G1 X119.196 Y93.504 E2.4915
G1 X119.73 Y93.456 E2.5343
G1 X120.66 Y93.401 E2.60866
G1 X121.262 Y93.385 E2.65673
G1 X122.129 Y93.386 E2.72594
G1 X122.697 Y93.404 E2.7713
G1 X123.651 Y93.464 E2.84761
G1 X124.241 Y93.521 E2.89492
G1 X125.204 Y93.645 E2.97243
G1 X125.702 Y93.724 E3.01268
G1 X126.586 Y93.894 E3.08454
G1 X127.027 Y93.992 E3.1206
G1 X127.979 Y94.242 E3.19917
G1 X128.143 Y94.291 E3.21283
G1 X129.464 Y94.74 E3.3242
G1 X129.466 Y94.734 E3.32471
G1 X129.603 Y94.771 E3.33603
G1 X129.804 Y94.834 E3.35285
G1 X130.762 Y95.177 E3.43407
G1 X131.256 Y95.384 E3.47683
G1 X131.621 Y95.548 E3.50877
G1 X132.3 Y95.869 E3.56872
G1 X132.518 Y95.979 E3.58821
G1 X133.134 Y96.242 E3.64168
G1 X133.791 Y96.429 E3.69621
G1 X134.462 Y96.531 E3.75039
G1 X134.928 Y96.551 E3.78762
G1 X137.385 Y96.552 E3.98375
G1 X138.386 Y96.588 E4.0637
G1 X139.426 Y96.699 E4.14719
G1 X139.601 Y96.724 E4.1613
G1 X140.49 Y96.888 E4.23346
G1 X140.613 Y96.916 E4.24353
G1 X141.507 Y97.15 E4.3173
G1 X141.67 Y97.199 E4.33089
G1 X142.512 Y97.486 E4.4019
G1 X142.678 Y97.549 E4.41607
G1 X143.481 Y97.89 E4.48571
G1 X143.67 Y97.978 E4.50235
G1 X144.581 Y98.452 E4.58432
G1 X145.36 Y98.927 E4.65716
G1 X145.511 Y99.027 E4.67161
G1 X146.225 Y99.538 E4.7417
G1 X146.373 Y99.651 E4.75656
G1 X147.173 Y100.324 E4.84001
G1 X147.841 Y100.963 E4.91381
G1 X148.487 Y101.659 E4.98961
G1 X148.606 Y101.798 E5.00421
G1 X149.16 Y102.489 E5.07491
G1 X149.264 Y102.628 E5.08877
G1 X149.757 Y103.343 E5.15809
G1 X149.873 Y103.527 E5.17546
G1 X150.316 Y104.283 E5.2454
G1 X150.393 Y104.425 E5.2583
G1 X150.796 Y105.244 E5.33116
G1 X150.852 Y105.37 E5.34216
G1 X151.194 Y106.215 E5.41493
G1 X151.253 Y106.38 E5.42892
G1 X151.525 Y107.227 E5.49993
G1 X151.571 Y107.39 E5.51345
G1 X151.779 Y108.243 E5.58354
G1 X151.816 Y108.421 E5.59805
G1 X151.964 Y109.313 E5.67023
G1 X151.988 Y109.499 E5.6852
G1 X152.07 Y110.383 E5.75606
G1 X152.078 Y110.535 E5.76821
G1 X152.099 Y111.268 E5.82675
G1 X152.099 Y123.72 E6.82072
G1 X152.063 Y124.726 E6.90108
G1 X152.053 Y124.861 E6.91188
G1 X151.951 Y125.778 E6.98553
G1 X151.926 Y125.953 E6.99964
G1 X151.763 Y126.832 E7.071
G1 X151.731 Y126.977 E7.08286
G1 X151.507 Y127.837 E7.1538
G1 X151.451 Y128.022 E7.16923
G1 X151.164 Y128.864 E7.24024
G1 X151.101 Y129.03 E7.25441
G1 X150.76 Y129.833 E7.32405
G1 X150.679 Y130.008 E7.33944
G1 X150.198 Y130.933 E7.42266
G1 X149.723 Y131.712 E7.4955
G1 X149.623 Y131.863 E7.50995
G1 X149.112 Y132.577 E7.58004
G1 X148.999 Y132.725 E7.5949
G1 X148.326 Y133.525 E7.67836
G1 X147.687 Y134.193 E7.75215
G1 X146.991 Y134.839 E7.82795
G1 X146.852 Y134.958 E7.84255
G1 X146.161 Y135.512 E7.91325
G1 X146.022 Y135.616 E7.92711
G1 X145.307 Y136.109 E7.99643
G1 X145.123 Y136.225 E8.0138
G1 X144.367 Y136.668 E8.08374
G1 X144.225 Y136.745 E8.09664
G1 X143.28 Y137.204 E8.1805
G1 X142.425 Y137.549 E8.25409
G1 X142.262 Y137.607 E8.2679
G1 X141.419 Y137.878 E8.33859
G1 X141.255 Y137.924 E8.35218
G1 X140.383 Y138.136 E8.42382
G1 X140.221 Y138.169 E8.43702
G1 X139.328 Y138.317 E8.50927
G1 X139.151 Y138.34 E8.52352
G1 X138.257 Y138.423 E8.59519
G1 X138.115 Y138.43 E8.60654
G1 X137.374 Y138.451 E8.66571
G1 X134.921 Y138.451 E8.86152
G1 X134.253 Y138.493 E8.91495
G1 X133.582 Y138.622 E8.96949
G1 X132.936 Y138.834 E9.02376
G1 X132.354 Y139.105 E9.07501
G1 X131.836 Y139.353 E9.12085
G1 X131.077 Y139.693 E9.18724
G1 X130.668 Y139.861 E9.22254
G1 X129.794 Y140.187 E9.297
G1 X129.618 Y140.245 E9.31179
G1 X128.749 Y140.497 E9.38402
G1 X128.279 Y140.639 E9.42321
G1 X128.038 Y140.724 E9.44361
G1 X127.886 Y140.771 E9.45631
G1 X126.862 Y141.046 E9.54094
G1 X126.435 Y141.137 E9.5758
G1 X125.879 Y141.242 E9.62096
G1 X125.161 Y141.361 E9.67906
G1 X124.586 Y141.439 E9.72538
G1 X123.622 Y141.539 E9.80274
G1 X123.059 Y141.58 E9.8478
G1 X122.168 Y141.616 E9.91898
G1 X121.553 Y141.621 E9.96808
G1 X120.7 Y141.604 E10.03618
G1 X120.12 Y141.576 E10.08253
G1 X119.178 Y141.498 E10.15798
G1 X118.583 Y141.429 E10.2058
G1 X117.647 Y141.292 E10.28131
G1 X117.126 Y141.199 E10.32355
G1 X116.263 Y141.019 E10.39393
G1 X115.687 Y140.88 E10.44122
G1 X114.76 Y140.625 E10.51797
G1 X114.19 Y140.447 E10.56564
G1 X113.358 Y140.162 E10.63584
G1 X112.821 Y139.958 E10.68169
G1 X111.956 Y139.601 E10.75639
G1 X111.452 Y139.373 E10.80055
G1 X110.587 Y138.949 E10.87744
G1 X110.262 Y138.777 E10.9068
G1 X109.651 Y138.501 E10.96031
G1 X108.997 Y138.302 E11.01488
G1 X108.325 Y138.187 E11.0693
G1 X107.644 Y138.156 E11.12372
G1 X107.012 Y138.206 E11.17433
G1 X106.469 Y138.28 E11.21807
G1 X105.376 Y138.389 E11.30575
G1 X104.847 Y138.42 E11.34805
G1 X103.755 Y138.446 E11.43525
G1 X103.267 Y138.438 E11.47421
G1 X102.094 Y138.375 E11.56798
G1 X101.664 Y138.334 E11.60246
G1 X100.492 Y138.178 E11.69683
G1 X99.986 Y138.087 E11.73787
G1 X98.906 Y137.856 E11.82603
G1 X98.424 Y137.732 E11.86576
G1 X97.329 Y137.407 E11.95694
G1 X96.908 Y137.265 E11.9924
G1 X95.808 Y136.842 E12.08648
G1 X95.326 Y136.633 E12.12842
G1 X94.378 Y136.184 E12.21215
G1 X93.948 Y135.959 E12.25089
G1 X92.919 Y135.371 E12.34549
G1 X92.526 Y135.124 E12.38254
G1 X91.583 Y134.481 E12.47365
G1 X91.192 Y134.191 E12.51251
G1 X90.311 Y133.486 E12.60258
G1 X89.947 Y133.17 E12.64106
G1 X89.076 Y132.352 E12.73644
G1 X88.752 Y132.022 E12.77336
G1 X87.994 Y131.191 E12.86314
G1 X87.674 Y130.81 E12.90286
G1 X86.996 Y129.943 E12.99071
G1 X86.723 Y129.564 E13.028
G1 X86.054 Y128.556 E13.12457
G1 X85.787 Y128.109 E13.16613
G1 X85.259 Y127.156 E13.2531
G1 X85.058 Y126.758 E13.28869
G1 X84.551 Y125.649 E13.38603
G1 X84.378 Y125.223 E13.42273
G1 X84.003 Y124.204 E13.50941
G1 X83.848 Y123.726 E13.54952
G1 X83.525 Y122.578 E13.64472
G1 X83.411 Y122.088 E13.68487
G1 X83.207 Y121.068 E13.76791
G1 X83.132 Y120.598 E13.8059
G1 X82.991 Y119.442 E13.89886
G1 X82.958 Y119.021 E13.93257
G1 X82.918 Y118.101 E14.00608
G1 X82.921 Y117.787 E14.03114
G1 X82.914 Y117.124 E14.08407
G1 X82.958 Y115.924 E14.17992
G1 X82.987 Y115.599 E14.20597
G1 X83.117 Y114.496 E14.29462
G1 X83.19 Y114.032 E14.33212
G1 X83.41 Y112.904 E14.42386
G1 X83.523 Y112.433 E14.46252
G1 X83.835 Y111.315 E14.55518
G1 X83.97 Y110.892 E14.59062
G1 X84.335 Y109.881 E14.67642
G1 X84.536 Y109.39 E14.71877
G1 X85.042 Y108.274 E14.81658
G1 X85.253 Y107.859 E14.85375
G1 X85.796 Y106.876 E14.94339
G1 X86.047 Y106.463 E14.98197
G1 X86.655 Y105.537 E15.07039
G1 X86.939 Y105.14 E15.10936
G1 X87.66 Y104.207 E15.20348
G1 X87.97 Y103.841 E15.24177
G1 X88.702 Y103.033 E15.3288
G1 X89.045 Y102.682 E15.36797
G1 X89.894 Y101.88 E15.4612
G0 F9000 X89.6 Y102.157
G1 F1125 X89.6 Y132.844 E17.91077
G0 F9000 X91.2 Y134.196
G1 F1125 X91.2 Y100.804 E20.57626
G0 F9000 X92.8 Y99.707
G1 F1125 X92.8 Y135.296 E23.41713
G0 F9000 X94.4 Y136.194
G1 F1125 X94.4 Y98.81 E26.40128
G0 F9000 X96 Y98.087
G1 F1125 X96 Y136.915 E29.5007
G0 F9000 X97.6 Y137.487
G1 F1125 X97.6 Y97.516 E32.69136
G0 F9000 X99.2 Y97.087
G1 F1125 X99.2 Y137.918 E35.95067
G0 F9000 X100.8 Y138.218
G1 F1125 X100.8 Y96.785 E39.25803
G0 F9000 X102.4 Y96.613
G1 F1125 X102.4 Y138.391 E42.59293
G0 F9000 X104 Y138.441
G1 F1125 X104 Y96.566 E45.93557
G0 F9000 X105.6 Y96.636
G1 F1125 X105.6 Y138.367 E49.26672
G0 F9000 X107.2 Y138.192
G1 F1125 X107.2 Y96.826 E52.56873
G0 F9000 X108.8 Y96.744
G1 F1125 X108.8 Y138.268 E55.88336
G0 F9000 X110.4 Y138.85
G1 F1125 X110.4 Y96.156 E59.29138
G0 F9000 X112 Y95.383
G1 F1125 X112 Y139.619 E62.82249
G0 F9000 X113.6 Y140.244
G1 F1125 X113.6 Y94.756 E66.45354
G0 F9000 X115.2 Y94.254
G1 F1125 X115.2 Y140.746 E70.16473
G0 F9000 X116.8 Y141.131
G1 F1125 X116.8 Y93.869 E73.93739
G0 F9000 X118.4 Y93.599
G1 F1125 X118.4 Y141.402 E77.75323
G0 F9000 X120 Y141.566
G1 F1125 X120 Y93.44 E81.59485
G0 F9000 X121.6 Y93.386
G1 F1125 X121.6 Y141.621 E85.44518
G0 F9000 X123.2 Y141.57
G1 F1125 X123.2 Y93.436 E89.28744
G0 F9000 X124.8 Y93.593
G1 F1125 X124.8 Y141.41 E93.1044
G0 F9000 X126.4 Y141.144
G1 F1125 X126.4 Y93.859 E96.8789
G0 F9000 X128 Y94.249
G1 F1125 X128 Y140.736 E100.58969
G0 F9000 X129.6 Y140.251
G1 F1125 X129.6 Y94.771 E104.2201
G0 F9000 X131.2 Y95.361
G1 F1125 X131.2 Y139.638 E107.75448
G0 F9000 X132.8 Y138.898
G1 F1125 X132.8 Y96.1 E111.1708
G0 F9000 X134.4 Y96.522
G1 F1125 X134.4 Y138.484 E114.52039
G0 F9000 X136 Y138.451
G1 F1125 X136 Y96.552 E117.86495
G0 F9000 X137.6 Y96.56
G1 F1125 X137.6 Y138.445 E121.20839
G0 F9000 X139.2 Y138.334
G1 F1125 X139.2 Y96.675 E124.5338
G0 F9000 X140.8 Y96.965
G1 F1125 X140.8 Y138.035 E127.81218
G0 F9000 X142.4 Y137.558
G1 F1125 X142.4 Y97.448 E131.01393
G0 F9000 X144 Y98.15
G1 F1125 X144 Y136.855 E134.10353
G0 F9000 X145.6 Y135.907
G1 F1125 X145.6 Y99.091 E137.04235
G0 F9000 X147.2 Y100.35
G1 F1125 X147.2 Y134.646 E139.78
G0 F9000 X148.8 Y132.962
G1 F1125 X148.8 Y102.04 E142.24833
G0 F9000 X150.4 Y104.44
G1 F1125 X150.4 Y130.545 E144.33214
G1 F2700 E139.33214
G0 F9000 X151.631 Y130.483
G0 X152.168 Y129.219
G0 X152.654 Y127.599
G0 X153.008 Y125.906
G0 X152 Y125.338
G1 F2700 E144.33214
G1 F1125 X152 Y109.629 E145.5861
G1 F2700 E140.5861
G0 F9000 X153.059 Y109.532
G0 X152.82 Y108.017
G0 X152.263 Y106.046
G0 X151.763 Y104.8
G0 X150.779 Y102.966
G0 X149.997 Y101.832
G0 X148.565 Y100.181
G0 X147.03 Y98.813
G0 X145.925 Y98.025
G0 X144.131 Y97.019
G0 X142.867 Y96.482
G0 X140.87 Y95.883
G0 X125.888 Y92.676
G0 X123.644 Y92.396
G0 X121.125 Y92.323
G0 X119.013 Y92.454
G0 X116.492 Y92.845
G0 X99.678 Y95.89
G0 X97.936 Y96.302
G0 X96.383 Y96.797
G0 X94.79 Y97.441
G0 X93.254 Y98.209
G0 X91.815 Y99.072
G0 X90.384 Y100.089
G0 X89.086 Y101.176
G0 X88.745 Y101.509
G0 X87.211 Y103.095
G0 X88 Y103.807
G1 F2700 E145.5861
G1 F1125 X88 Y131.197 E147.77249
G0 F9000 X86.4 Y129.077
G1 F1125 X86.4 Y105.925 E149.62058
G0 F9000 X84.8 Y108.807
G1 F1125 X84.8 Y126.193 E151.00841
G1 F2700 E146.00841
G0 F9000 X83.622 Y126.181
G0 X82.826 Y124.023
G0 X82.697 Y123.537
G0 X82.176 Y121.345
G0 X83.2 Y121.024
G1 F2700 E151.00841
G1 F1125 X83.2 Y113.98 E151.57069
G1 F2700 E146.57069
G0 F300 X83.2 Y113.98 Z0.54
G0 F9000 X82.064 Y114.339
G0 X81.891 Y115.97
G0 X81.854 Y118.134
G0 X81.932 Y119.555
G0 X82.176 Y121.345
G0 X82.52 Y122.937
G0 X83.007 Y124.58
G0 X83.622 Y126.181
G0 X83.834 Y126.627
G0 X84.904 Y128.71
G0 X86.054 Y128.555
;TIME_ELAPSED:114.143174
;LAYER:-5
M140 S50
;TYPE:SUPPORT
G1 F2700 E151.57069
G1 F1125 X86.723 Y129.563 E151.69141
G1 X86.996 Y129.942 E151.73801
G1 X87.674 Y130.809 E151.84783
G1 X87.994 Y131.19 E151.89748
G1 X88.751 Y132.021 E152.00964
G1 X89.076 Y132.351 E152.05586
G1 X89.946 Y133.169 E152.17501
G1 X90.31 Y133.485 E152.22311
G1 X91.192 Y134.189 E152.33571
G1 X91.583 Y134.48 E152.38435
G1 X92.525 Y135.123 E152.49815
G1 X92.918 Y135.37 E152.54447
G1 X92.977 Y135.403 E152.55121
G1 X85.942 Y128.368 E153.54393
G1 X85.786 Y128.108 E153.57418
G1 X85.259 Y127.155 E153.68284
G1 X85.057 Y126.757 E153.72738
G1 X84.55 Y125.647 E153.84914
G1 X84.492 Y125.505 E153.86444
G1 X95.841 Y136.854 E155.46591
G1 X96.908 Y137.264 E155.57997
G1 X97.329 Y137.406 E155.6243
G1 X98.009 Y137.607 E155.69505
G1 X83.737 Y123.335 E157.70898
G1 X83.524 Y122.576 E157.78764
G1 X83.411 Y122.086 E157.83782
G1 X83.287 Y121.471 E157.90042
G1 X99.879 Y138.063 E160.24173
G1 X99.986 Y138.086 E160.25265
G1 X100.491 Y138.177 E160.30385
G1 X101.548 Y138.317 E160.41024
G1 X83.034 Y119.804 E163.02269
G1 X82.991 Y119.44 E163.05927
G1 X82.957 Y119.02 E163.10131
G1 X82.925 Y118.28 E163.17522
G1 X103.071 Y138.426 E166.01804
G1 X103.267 Y138.437 E166.03762
G1 X103.754 Y138.445 E166.08622
G1 X104.486 Y138.427 E166.15929
G1 X82.923 Y116.864 E169.20206
G1 X82.957 Y115.923 E169.29601
G1 X82.986 Y115.598 E169.32857
G1 X82.995 Y115.522 E169.33621
G1 X105.816 Y138.343 E172.5565
G1 X106.469 Y138.278 E172.62197
G1 X107.012 Y138.205 E172.67664
G1 X107.086 Y138.199 E172.68405
G1 X83.152 Y114.265 E176.0614
G1 X83.19 Y114.031 E176.08505
G1 X83.375 Y113.074 E176.18231
G1 X108.521 Y138.219 E179.73061
G1 X108.996 Y138.3 E179.77869
G1 X109.65 Y138.5 E179.84693
G1 X110.261 Y138.776 E179.91383
G1 X110.587 Y138.947 E179.95056
G1 X110.737 Y139.021 E179.96725
G1 X83.658 Y111.942 E183.78839
G1 X83.834 Y111.314 E183.85346
G1 X83.97 Y110.891 E183.8978
G1 X83.983 Y110.853 E183.90181
G1 X113.25 Y140.12 E188.0317
G1 X113.357 Y140.161 E188.04313
G1 X114.189 Y140.446 E188.13088
G1 X114.759 Y140.624 E188.19047
G1 X115.323 Y140.779 E188.24883
G1 X84.36 Y109.816 E192.61804
G1 X84.536 Y109.389 E192.66413
G1 X84.789 Y108.83 E192.72535
G1 X117.163 Y141.204 E197.29367
G1 X117.647 Y141.291 E197.34274
G1 X118.583 Y141.428 E197.43713
G1 X118.829 Y141.456 E197.46183
G1 X85.245 Y107.872 E202.2009
G1 X85.253 Y107.857 E202.20259
G1 X85.748 Y106.961 E202.30473
G1 X120.374 Y141.587 E207.19084
G1 X120.699 Y141.603 E207.2233
G1 X121.553 Y141.62 E207.30853
G1 X121.818 Y141.617 E207.33498
G1 X86.291 Y106.09 E212.34822
G1 X86.655 Y105.536 E212.41436
G1 X86.861 Y105.246 E212.44986
G1 X123.185 Y141.569 E217.57549
G1 X123.622 Y141.538 E217.61921
G1 X124.478 Y141.448 E217.70509
G1 X87.474 Y104.445 E222.92668
G1 X87.66 Y104.206 E222.9569
G1 X87.969 Y103.84 E223.0047
G1 X88.118 Y103.675 E223.02688
G1 X125.712 Y141.268 E228.33173
G1 X125.879 Y141.241 E228.34861
G1 X126.434 Y141.135 E228.40499
G1 X126.862 Y141.045 E228.44863
G1 X126.893 Y141.035 E228.45188
G1 X88.794 Y102.937 E233.82799
G1 X89.045 Y102.681 E233.86376
G1 X89.512 Y102.24 E233.92785
G1 X128.005 Y140.733 E239.35963
G1 X128.037 Y140.723 E239.36298
G1 X128.279 Y140.637 E239.3886
G1 X128.748 Y140.496 E239.43747
G1 X129.084 Y140.398 E239.47239
