;FLAVOR:Marlin
;TIME:1583
;Filament used: 0.686033m
;Layer height: 0.2
;MINX:102.51
;MINY:103.367
;MINZ:0.2
;MAXX:132.542
;MAXY:131.669
;MAXZ:22.6
;Generated with Cura_SteamEngine 4.5.0
M140 S50
M105
M190 S50
M104 S200
M105
M109 S200
M82 ;absolute extrusion mode
; Ender 3 Custom Start G-code
G92 E0 ; Reset Extruder
G28 ; Home all axes
G1 Z2.0 F3000 ; Move Z Axis up little to prevent scratching of Heat Bed
G1 X0.1 Y20 Z0.3 F5000.0 ; Move to start position
G1 X0.1 Y200.0 Z0.3 F1500.0 E15 ; Draw the first line
G1 X0.4 Y200.0 Z0.3 F5000.0 ; Move to side a little
G1 X0.4 Y20 Z0.3 F1500.0 E30 ; Draw the second line
G92 E0 ; Reset Extruder
G1 Z2.0 F3000 ; Move Z Axis up little to prevent scratching of Heat Bed
G1 X5 Y20 Z0.3 F5000.0 ; Move over to prevent blob squish
G92 E0
G92 E0
G1 F2700 E-5
;LAYER_COUNT:112
;LAYER:0
M107
G1 F300 Z0.4
G0 F6000 X104.823 Y106.673 Z0.4
;TYPE:SKIRT
G1 F300 Z0.2
G1 F2700 E0
G1 F1200 X105.386 Y106.119 E0.02627
G1 X106.001 Y105.624 E0.05253
G1 X106.664 Y105.194 E0.07881
G1 X107.366 Y104.834 E0.10505
G1 X108.101 Y104.546 E0.13131
G1 X108.862 Y104.334 E0.15758
G1 X109.64 Y104.2 E0.18384
G1 X110.529 Y104.144 E0.21347
G1 X112.099 Y104.139 E0.26569
G1 X112.823 Y103.896 E0.29109
G1 X113.584 Y103.683 E0.31737
G1 X114.51 Y103.532 E0.34858
G1 X115.721 Y103.408 E0.38906
G1 X116.51 Y103.367 E0.41534
G1 X117.327 Y103.409 E0.44255
G1 X118.09 Y103.479 E0.46803
G1 X118.691 Y103.553 E0.48818
G1 X119.357 Y103.665 E0.51064
G1 X119.654 Y103.728 E0.52074
G1 X120.05 Y103.823 E0.53428
G1 X120.439 Y103.927 E0.54767
G1 X120.905 Y104.067 E0.56386
G1 X121.364 Y104.221 E0.57996
G1 X121.999 Y104.465 E0.60258
G1 X122.38 Y104.631 E0.61641
G1 X122.678 Y104.769 E0.62733
G1 X123.097 Y104.973 E0.64283
G1 X123.795 Y105.358 E0.66934
G1 X124.198 Y105.608 E0.68512
G1 X124.685 Y105.93 E0.70453
G1 X125.257 Y106.353 E0.7282
G1 X125.548 Y106.59 E0.74068
G1 X126.029 Y106.663 E0.75686
G1 X126.794 Y106.859 E0.78313
G1 X127.535 Y107.131 E0.80938
G1 X128.124 Y107.41 E0.83106
G1 X128.81 Y107.8 E0.8573
G1 X129.453 Y108.258 E0.88356
G1 X130.047 Y108.779 E0.90984
G1 X130.585 Y109.357 E0.9361
G1 X131.11 Y110.057 E0.9652
G1 X131.237 Y110.248 E0.97283
G1 X131.641 Y110.927 E0.99911
G1 X131.973 Y111.643 E1.02536
G1 X132.232 Y112.389 E1.05163
G1 X132.414 Y113.158 E1.07791
G1 X132.517 Y113.941 E1.10418
G1 X132.542 Y114.568 E1.12505
G1 X132.541 Y120.28 E1.31503
G1 X132.501 Y121.069 E1.34131
G1 X132.381 Y121.85 E1.36759
G1 X132.183 Y122.614 E1.39384
G1 X131.909 Y123.355 E1.42011
G1 X131.656 Y123.887 E1.43971
G1 X131.548 Y124.094 E1.44747
G1 X131.148 Y124.775 E1.47374
G1 X130.681 Y125.412 E1.50001
G1 X130.152 Y125.998 E1.52627
G1 X129.566 Y126.528 E1.55255
G1 X128.935 Y126.993 E1.57862
G1 X128.755 Y127.112 E1.5858
G1 X128.075 Y127.513 E1.61205
G1 X127.358 Y127.844 E1.63832
G1 X126.611 Y128.101 E1.66459
G1 X125.842 Y128.28 E1.69085
G1 X125.669 Y128.302 E1.69665
G1 X125.512 Y128.435 E1.7035
G1 X124.801 Y128.989 E1.73348
G1 X124.154 Y129.442 E1.75975
G1 X123.482 Y129.818 E1.78536
G1 X123.272 Y129.945 E1.79352
G1 X122.576 Y130.318 E1.81978
G1 X121.656 Y130.683 E1.8527
G1 X120.886 Y130.933 E1.87963
G1 X120.52 Y131.042 E1.89233
G1 X120.052 Y131.169 E1.90846
G1 X119.725 Y131.25 E1.91967
G1 X119.348 Y131.335 E1.93252
G1 X118.649 Y131.459 E1.95613
G1 X118.223 Y131.515 E1.97042
G1 X117.672 Y131.568 E1.98883
G1 X116.101 Y131.662 E2.04118
G1 X115.311 Y131.669 E2.06745
G1 X114.525 Y131.597 E2.09371
G1 X113.75 Y131.445 E2.11997
G1 X113.095 Y131.251 E2.1427
G1 X111.814 Y130.81 E2.18776
G1 X110.779 Y130.809 E2.22218
G1 X109.99 Y130.768 E2.24846
G1 X109.21 Y130.648 E2.27471
G1 X108.544 Y130.48 E2.29755
G1 X108.394 Y130.435 E2.30276
G1 X107.65 Y130.17 E2.32903
G1 X106.936 Y129.831 E2.35532
G1 X106.261 Y129.422 E2.38157
G1 X105.63 Y128.947 E2.40784
G1 X104.919 Y128.272 E2.44044
G1 X104.789 Y128.132 E2.4468
G1 X104.282 Y127.526 E2.47308
G1 X103.838 Y126.873 E2.49934
G1 X103.463 Y126.178 E2.52561
G1 X103.16 Y125.449 E2.55186
G1 X102.85 Y124.319 E2.59084
G1 X102.808 Y124.104 E2.59812
G1 X102.696 Y123.323 E2.62436
G1 X102.663 Y122.613 E2.64801
G1 X102.661 Y119.549 E2.74991
G1 X102.599 Y119.09 E2.76532
G1 X102.567 Y118.747 E2.77678
G1 X102.54 Y118.347 E2.79011
G1 X102.515 Y117.748 E2.81005
G1 X102.51 Y117.239 E2.82698
G1 X102.519 Y116.857 E2.83969
G1 X102.562 Y116.208 E2.86132
G1 X102.61 Y115.761 E2.87628
G1 X102.661 Y115.398 E2.88847
G1 X102.663 Y112.06 E2.99949
G1 X102.703 Y111.271 E3.02577
G1 X102.823 Y110.491 E3.05202
G1 X103.021 Y109.727 E3.07827
G1 X103.296 Y108.986 E3.10455
G1 X103.644 Y108.277 E3.13082
G1 X104.062 Y107.607 E3.15709
G1 X104.713 Y106.793 E3.19176
G1 X104.823 Y106.673 E3.19717
G0 F6000 X105.118 Y106.944
G1 F1200 X105.667 Y106.404 E3.22278
G1 X106.268 Y105.925 E3.24834
G1 X106.916 Y105.511 E3.27392
G1 X107.604 Y105.166 E3.29952
G1 X108.323 Y104.894 E3.32509
G1 X109.067 Y104.699 E3.35067
G1 X109.827 Y104.582 E3.37624
G1 X110.531 Y104.544 E3.39969
G1 X112.168 Y104.539 E3.45414
G1 X112.226 Y104.519 E3.45618
G1 X112.95 Y104.276 E3.48158
G1 X113.691 Y104.069 E3.50717
G1 X114.551 Y103.929 E3.53615
G1 X115.762 Y103.805 E3.57664
G1 X116.53 Y103.767 E3.60221
G1 X117.285 Y103.807 E3.62736
G1 X118.041 Y103.876 E3.65261
G1 X118.642 Y103.95 E3.67275
G1 X119.274 Y104.056 E3.69406
G1 X119.571 Y104.119 E3.70416
G1 X119.946 Y104.209 E3.71699
G1 X120.335 Y104.313 E3.73038
G1 X120.778 Y104.446 E3.74576
G1 X121.237 Y104.6 E3.76187
G1 X121.839 Y104.832 E3.78333
G1 X122.22 Y104.998 E3.79715
G1 X122.503 Y105.129 E3.80752
G1 X122.922 Y105.333 E3.82302
G1 X123.584 Y105.698 E3.84816
G1 X124.22 Y106.098 E3.87315
G1 X124.462 Y106.261 E3.88286
G1 X125.004 Y106.663 E3.9053
G1 X125.372 Y106.963 E3.92109
G1 X125.988 Y107.063 E3.94185
G1 X126.732 Y107.259 E3.96744
G1 X127.451 Y107.531 E3.99301
G1 X127.944 Y107.767 E4.01119
G1 X128.612 Y108.148 E4.03676
G1 X129.237 Y108.597 E4.06236
G1 X129.811 Y109.108 E4.08792
G1 X130.33 Y109.675 E4.11349
G1 X130.777 Y110.279 E4.13848
G1 X130.904 Y110.47 E4.14611
G1 X131.296 Y111.131 E4.17167
G1 X131.617 Y111.83 E4.19725
G1 X131.864 Y112.559 E4.22285
G1 X132.034 Y113.309 E4.24843
G1 X132.125 Y114.073 E4.27402
G1 X132.142 Y114.568 E4.29049
G1 X132.141 Y120.28 E4.48048
G1 X132.101 Y121.048 E4.50605
G1 X131.981 Y121.808 E4.53164
G1 X131.783 Y122.551 E4.55722
G1 X131.51 Y123.27 E4.5828
G1 X131.302 Y123.702 E4.59875
G1 X131.194 Y123.909 E4.60651
G1 X130.803 Y124.571 E4.63208
G1 X130.346 Y125.19 E4.65767
G1 X129.826 Y125.757 E4.68326
G1 X129.251 Y126.268 E4.70885
G1 X128.714 Y126.659 E4.73094
G1 X128.534 Y126.778 E4.73812
G1 X127.871 Y127.168 E4.7637
G1 X127.171 Y127.488 E4.7893
G1 X126.442 Y127.733 E4.81488
G1 X125.692 Y127.901 E4.84044
G1 X125.497 Y127.924 E4.84698
G1 X125.266 Y128.119 E4.85703
G1 X124.555 Y128.673 E4.88701
G1 X123.925 Y129.114 E4.91259
G1 X123.288 Y129.469 E4.93684
G1 X123.066 Y129.602 E4.94545
G1 X122.387 Y129.965 E4.97106
G1 X121.532 Y130.302 E5.00162
G1 X120.762 Y130.552 E5.02855
G1 X120.415 Y130.656 E5.0406
G1 X119.947 Y130.783 E5.05673
G1 X119.637 Y130.86 E5.06735
G1 X119.26 Y130.945 E5.08021
G1 X118.596 Y131.063 E5.10264
G1 X118.17 Y131.119 E5.11693
G1 X117.648 Y131.169 E5.13437
G1 X116.077 Y131.263 E5.18671
G1 X115.308 Y131.269 E5.21229
G1 X114.542 Y131.195 E5.23789
G1 X113.788 Y131.042 E5.26348
G1 X113.225 Y130.873 E5.28303
G1 X111.93 Y130.427 E5.32858
G1 X110.779 Y130.409 E5.36687
G1 X110.011 Y130.368 E5.39245
G1 X109.251 Y130.248 E5.41804
G1 X108.659 Y130.097 E5.43836
G1 X108.509 Y130.052 E5.44357
G1 X107.784 Y129.793 E5.46917
G1 X107.091 Y129.46 E5.49475
G1 X106.436 Y129.057 E5.52033
G1 X105.826 Y128.588 E5.54592
G1 X105.212 Y127.999 E5.57422
G1 X105.082 Y127.859 E5.58057
G1 X104.589 Y127.269 E5.60614
G1 X104.159 Y126.631 E5.63173
G1 X103.799 Y125.952 E5.65729
G1 X103.51 Y125.239 E5.68288
G1 X103.242 Y124.243 E5.71719
G1 X103.2 Y124.028 E5.72447
G1 X103.092 Y123.266 E5.75007
G1 X103.063 Y122.613 E5.77181
G1 X103.061 Y119.523 E5.87459
G1 X102.997 Y119.052 E5.8904
G1 X102.965 Y118.709 E5.90185
G1 X102.939 Y118.331 E5.91446
G1 X102.914 Y117.732 E5.9344
G1 X102.91 Y117.249 E5.95046
G1 X102.919 Y116.867 E5.96317
G1 X102.959 Y116.251 E5.9837
G1 X103.007 Y115.804 E5.99865
G1 X103.061 Y115.425 E6.01139
G1 X103.063 Y112.06 E6.12331
G1 X103.103 Y111.292 E6.14889
G1 X103.223 Y110.532 E6.17448
G1 X103.421 Y109.789 E6.20005
G1 X103.695 Y109.071 E6.22561
G1 X104.043 Y108.384 E6.25123
G1 X104.459 Y107.738 E6.27678
G1 X105.008 Y107.064 E6.30569
G1 X105.118 Y106.944 E6.31111
G0 F6000 X105.413 Y107.214
G1 F1200 X105.947 Y106.69 E6.33599
G1 X106.534 Y106.227 E6.36086
G1 X107.167 Y105.828 E6.38575
G1 X107.839 Y105.5 E6.41062
G1 X108.543 Y105.245 E6.43552
G1 X109.269 Y105.066 E6.46039
G1 X110.011 Y104.967 E6.48529
G1 X110.534 Y104.944 E6.5027
G1 X112.235 Y104.939 E6.55928
G1 X112.354 Y104.898 E6.56346
G1 X113.078 Y104.655 E6.58886
G1 X113.799 Y104.455 E6.61375
G1 X114.592 Y104.327 E6.64047
G1 X115.803 Y104.203 E6.68095
G1 X116.55 Y104.167 E6.70583
G1 X117.243 Y104.205 E6.72891
G1 X117.992 Y104.273 E6.75393
G1 X118.593 Y104.347 E6.77407
G1 X119.191 Y104.447 E6.79423
G1 X119.488 Y104.51 E6.80433
G1 X119.843 Y104.596 E6.81648
G1 X120.232 Y104.7 E6.82987
G1 X120.651 Y104.826 E6.84442
G1 X121.11 Y104.98 E6.86053
G1 X121.679 Y105.199 E6.88081
G1 X122.06 Y105.365 E6.89463
G1 X122.328 Y105.488 E6.90444
G1 X122.747 Y105.692 E6.91994
G1 X123.373 Y106.038 E6.94373
G1 X123.997 Y106.43 E6.96823
G1 X124.239 Y106.593 E6.97794
G1 X124.751 Y106.973 E6.99915
G1 X125.204 Y107.345 E7.01864
G1 X125.947 Y107.463 E7.04366
G1 X126.669 Y107.659 E7.06855
G1 X127.627 Y108.055 E7.10303
G1 X127.764 Y108.124 E7.10813
G1 X128.413 Y108.496 E7.13301
G1 X129.019 Y108.935 E7.1579
G1 X129.574 Y109.436 E7.18276
G1 X130.073 Y109.993 E7.20764
G1 X130.444 Y110.5 E7.22853
G1 X130.571 Y110.691 E7.23616
G1 X130.951 Y111.335 E7.26103
G1 X131.261 Y112.016 E7.28592
G1 X131.496 Y112.727 E7.31082
G1 X131.654 Y113.458 E7.3357
G1 X131.742 Y114.568 E7.37273
G1 X131.741 Y120.28 E7.56272
G1 X131.701 Y121.027 E7.5876
G1 X131.581 Y121.766 E7.6125
G1 X131.384 Y122.487 E7.63736
G1 X130.947 Y123.517 E7.67457
G1 X130.839 Y123.724 E7.68234
G1 X130.458 Y124.368 E7.70722
G1 X130.011 Y124.967 E7.73208
G1 X129.502 Y125.515 E7.75696
G1 X128.937 Y126.006 E7.78186
G1 X128.493 Y126.325 E7.80004
G1 X128.313 Y126.444 E7.80722
G1 X127.668 Y126.823 E7.8321
G1 X126.986 Y127.131 E7.85699
G1 X126.276 Y127.364 E7.88184
G1 X125.544 Y127.519 E7.90673
G1 X125.337 Y127.536 E7.91364
G1 X125.02 Y127.804 E7.92744
G1 X124.309 Y128.358 E7.95742
G1 X123.696 Y128.785 E7.98227
G1 X123.11 Y129.111 E8.00457
G1 X122.859 Y129.26 E8.01428
G1 X122.199 Y129.611 E8.03914
G1 X121.409 Y129.922 E8.06738
G1 X120.639 Y130.172 E8.09431
G1 X120.31 Y130.27 E8.10573
G1 X119.842 Y130.397 E8.12185
G1 X119.549 Y130.47 E8.1319
G1 X119.172 Y130.555 E8.14475
G1 X118.544 Y130.666 E8.16596
G1 X118.118 Y130.722 E8.18025
G1 X117.624 Y130.77 E8.19676
G1 X116.053 Y130.864 E8.24911
G1 X115.305 Y130.868 E8.27398
G1 X114.561 Y130.793 E8.29886
G1 X113.829 Y130.639 E8.32374
G1 X113.356 Y130.494 E8.34019
G1 X111.96 Y130.01 E8.38933
G1 X110.779 Y130.009 E8.42861
G1 X110.033 Y129.968 E8.45346
G1 X109.294 Y129.848 E8.47836
G1 X108.774 Y129.714 E8.49622
G1 X108.624 Y129.669 E8.50143
G1 X107.92 Y129.416 E8.52631
G1 X107.247 Y129.089 E8.5512
G1 X106.612 Y128.693 E8.57609
G1 X106.024 Y128.231 E8.60096
G1 X105.505 Y127.727 E8.62502
G1 X105.375 Y127.587 E8.63138
G1 X104.896 Y127.013 E8.65624
G1 X104.481 Y126.39 E8.68114
G1 X104.135 Y125.727 E8.70602
G1 X103.862 Y125.031 E8.73088
G1 X103.635 Y124.166 E8.76063
G1 X103.593 Y123.951 E8.76791
G1 X103.489 Y123.21 E8.7928
G1 X103.463 Y122.613 E8.81267
G1 X103.461 Y119.501 E8.91618
G1 X103.395 Y119.015 E8.93249
G1 X103.363 Y118.672 E8.94395
G1 X103.339 Y118.314 E8.95588
G1 X103.314 Y117.715 E8.97582
G1 X103.31 Y117.258 E8.99102
G1 X103.319 Y116.876 E9.00373
G1 X103.357 Y116.294 E9.02313
G1 X103.405 Y115.847 E9.03808
G1 X103.461 Y115.453 E9.05132
G1 X103.463 Y112.06 E9.16417
G1 X103.503 Y111.314 E9.18902
G1 X103.623 Y110.575 E9.21392
G1 X103.821 Y109.854 E9.23879
G1 X104.095 Y109.158 E9.26367
G1 X104.441 Y108.495 E9.28854
G1 X104.857 Y107.872 E9.31346
G1 X105.303 Y107.334 E9.3367
G1 X105.413 Y107.214 E9.34212
G0 F6000 X105.708 Y107.484
G1 F1200 X106.227 Y106.977 E9.36625
G1 X106.799 Y106.529 E9.39041
G1 X107.417 Y106.147 E9.41458
G1 X108.073 Y105.836 E9.43872
G1 X108.76 Y105.598 E9.46291
G1 X109.468 Y105.437 E9.48705
G1 X110.536 Y105.344 E9.52271
G1 X112.306 Y105.339 E9.58158
G1 X112.481 Y105.277 E9.58776
G1 X113.205 Y105.034 E9.61316
G1 X113.905 Y104.841 E9.63731
G1 X114.633 Y104.725 E9.66183
G1 X115.844 Y104.601 E9.70232
G1 X116.569 Y104.567 E9.72646
G1 X117.202 Y104.603 E9.74754
G1 X117.944 Y104.67 E9.77232
G1 X118.545 Y104.744 E9.79246
G1 X119.108 Y104.839 E9.81145
G1 X119.405 Y104.902 E9.82155
G1 X119.74 Y104.982 E9.83301
G1 X120.129 Y105.086 E9.8464
G1 X120.523 Y105.205 E9.86009
G1 X120.982 Y105.359 E9.87619
G1 X121.519 Y105.565 E9.89532
G1 X121.9 Y105.731 E9.90914
G1 X122.153 Y105.848 E9.91841
G1 X122.572 Y106.052 E9.93391
G1 X123.162 Y106.378 E9.95633
G1 X123.773 Y106.762 E9.98034
G1 X124.015 Y106.925 E9.99004
G1 X124.498 Y107.283 E10.01004
G1 X125.035 Y107.725 E10.03317
G1 X125.187 Y107.745 E10.03827
G1 X125.904 Y107.863 E10.06244
G1 X126.603 Y108.059 E10.08658
G1 X127.447 Y108.412 E10.11701
G1 X127.584 Y108.481 E10.12211
G1 X128.214 Y108.843 E10.14628
G1 X128.8 Y109.272 E10.17043
G1 X129.335 Y109.763 E10.19459
G1 X129.814 Y110.31 E10.21877
G1 X130.111 Y110.722 E10.23566
G1 X130.238 Y110.913 E10.24329
G1 X130.606 Y111.539 E10.26744
G1 X130.904 Y112.201 E10.29159
G1 X131.126 Y112.893 E10.31576
G1 X131.271 Y113.605 E10.33993
G1 X131.342 Y114.568 E10.37204
G1 X131.341 Y120.28 E10.56203
G1 X131.301 Y121.005 E10.58618
G1 X131.181 Y121.722 E10.61036
G1 X130.984 Y122.421 E10.63451
G1 X130.592 Y123.332 E10.6675
G1 X130.484 Y123.539 E10.67526
G1 X130.114 Y124.163 E10.69939
G1 X129.676 Y124.743 E10.72356
G1 X129.178 Y125.272 E10.74773
G1 X128.624 Y125.742 E10.77189
G1 X128.273 Y125.992 E10.78623
G1 X128.093 Y126.111 E10.7934
G1 X127.466 Y126.477 E10.81755
G1 X126.802 Y126.773 E10.84173
G1 X126.11 Y126.994 E10.86589
G1 X125.398 Y127.137 E10.89004
G1 X125.169 Y127.154 E10.89768
G1 X124.775 Y127.488 E10.91486
G1 X124.064 Y128.042 E10.94484
G1 X123.467 Y128.456 E10.969
G1 X122.933 Y128.752 E10.98931
G1 X122.653 Y128.917 E11.00012
G1 X122.011 Y129.257 E11.02428
G1 X121.285 Y129.541 E11.05021
G1 X120.515 Y129.791 E11.07714
G1 X120.206 Y129.884 E11.08787
G1 X119.738 Y130.011 E11.104
G1 X119.461 Y130.079 E11.11349
G1 X119.084 Y130.164 E11.12634
G1 X118.492 Y130.27 E11.14634
G1 X118.066 Y130.326 E11.16063
G1 X117.6 Y130.37 E11.1762
G1 X116.029 Y130.464 E11.22855
G1 X115.303 Y130.468 E11.25269
G1 X114.581 Y130.391 E11.27684
G1 X113.871 Y130.236 E11.30102
G1 X113.486 Y130.116 E11.31443
G1 X112.032 Y129.61 E11.36563
G1 X110.78 Y129.609 E11.40727
G1 X110.055 Y129.568 E11.43143
G1 X109.338 Y129.448 E11.45561
G1 X108.889 Y129.331 E11.47104
G1 X108.739 Y129.286 E11.47625
G1 X108.055 Y129.039 E11.50044
G1 X107.403 Y128.719 E11.52459
G1 X106.791 Y128.329 E11.54873
G1 X106.224 Y127.874 E11.57291
G1 X105.799 Y127.455 E11.59276
G1 X105.669 Y127.315 E11.59911
G1 X105.204 Y126.756 E11.6233
G1 X104.804 Y126.15 E11.64745
G1 X104.473 Y125.503 E11.67162
G1 X104.215 Y124.824 E11.69578
G1 X104.027 Y124.089 E11.72101
G1 X103.985 Y123.874 E11.7283
G1 X103.886 Y123.155 E11.75244
G1 X103.863 Y122.613 E11.77048
G1 X103.861 Y119.476 E11.87482
G1 X103.794 Y118.978 E11.89153
G1 X103.762 Y118.635 E11.90299
