;FLAVOR:Marlin
;TIME:2346
;Filament used: 1.55739m
;Layer height: 0.2
;MINX:81.854
;MINY:92.323
;MINZ:0.24
;MAXX:153.059
;MAXY:142.67
;MAXZ:24.89
;Generated with Cura_SteamEngine 4.5.0
M140 S50
M105
M190 S50
M104 S200
M105
M109 S200
M82 ;absolute extrusion mode
; Ender 3 Custom Start G-code
G92 E0 ; Reset Extruder
G28 ; Home all axes
G1 Z2.0 F3000 ; Move Z Axis up little to prevent scratching of Heat Bed
G1 X0.1 Y20 Z0.3 F5000.0 ; Move to start position
G1 X0.1 Y200.0 Z0.3 F1500.0 E15 ; Draw the first line
G1 X0.4 Y200.0 Z0.3 F5000.0 ; Move to side a little
G1 X0.4 Y20 Z0.3 F1500.0 E30 ; Draw the second line
G92 E0 ; Reset Extruder
G1 Z2.0 F3000 ; Move Z Axis up little to prevent scratching of Heat Bed
G1 X5 Y20 Z0.3 F5000.0 ; Move over to prevent blob squish
G92 E0
G92 E0
G1 F2700 E-5
;LAYER_COUNT:119
;LAYER:-6
M107
G0 F9000 X90.217 Y101.68 Z0.24
;TYPE:SUPPORT-INTERFACE
G1 F2700 E0
G1 F1125 X90.578 Y101.377 E0.03762
G1 X91.519 Y100.65 E0.13254
G1 X91.95 Y100.346 E0.17464
G1 X92.937 Y99.704 E0.26863
G1 X93.335 Y99.468 E0.30557
G1 X94.352 Y98.914 E0.39801
G1 X94.802 Y98.693 E0.43803
G1 X95.937 Y98.19 E0.53713
G1 X96.356 Y98.025 E0.57308
G1 X97.429 Y97.647 E0.66389
G1 X97.89 Y97.504 E0.70242
G1 X99.07 Y97.191 E0.79987
G1 X99.579 Y97.079 E0.84147
G1 X100.698 Y96.877 E0.93224
G1 X101.202 Y96.808 E0.97284
G1 X102.377 Y96.691 E1.0671
G1 X102.836 Y96.664 E1.1038
G1 X103.949 Y96.638 E1.19267
G1 X104.458 Y96.648 E1.23331
G1 X105.69 Y96.718 E1.33181
G1 X106.116 Y96.76 E1.36598
G1 X106.892 Y96.868 E1.42852
G1 X107.561 Y96.918 E1.48207
G1 X108.242 Y96.882 E1.53651
G1 X108.914 Y96.76 E1.59103
G1 X109.565 Y96.555 E1.64551
G1 X110.158 Y96.283 E1.69759
G1 X110.61 Y96.043 E1.73844
G1 X111.138 Y95.779 E1.78556
G1 X111.979 Y95.392 E1.85946
G1 X112.503 Y95.171 E1.90486
G1 X113.395 Y94.828 E1.98114
G1 X113.958 Y94.632 E2.02873
G1 X114.831 Y94.357 E2.10179
G1 X115.341 Y94.213 E2.14409
G1 X116.258 Y93.986 E2.2195
G1 X116.818 Y93.865 E2.26523
G1 X117.735 Y93.698 E2.33964
G1 X118.301 Y93.612 E2.38534
G1 X119.187 Y93.505 E2.45657
G1 X119.729 Y93.456 E2.50002
G1 X120.659 Y93.401 E2.57438
G1 X121.261 Y93.385 E2.62245
G1 X122.128 Y93.386 E2.69166
G1 X122.696 Y93.404 E2.73702
G1 X123.65 Y93.464 E2.81333
G1 X124.24 Y93.521 E2.86064
G1 X125.203 Y93.645 E2.93815
G1 X125.701 Y93.724 E2.9784
G1 X126.585 Y93.894 E3.05026
G1 X127.026 Y93.992 E3.08632
G1 X127.978 Y94.242 E3.16489
G1 X128.142 Y94.291 E3.17855
G1 X129.448 Y94.733 E3.28861
G1 X129.702 Y94.804 E3.30966
G1 X129.897 Y94.869 E3.32607
G1 X131.328 Y95.419 E3.44844
G1 X131.732 Y95.6 E3.48378
G1 X132.521 Y95.982 E3.55376
G1 X133.138 Y96.244 E3.60726
G1 X133.796 Y96.429 E3.66183
G1 X134.467 Y96.528 E3.71597
G1 X134.908 Y96.547 E3.7512
G1 X137.464 Y96.554 E3.95523
G1 X138.537 Y96.6 E4.04096
G1 X139.604 Y96.724 E4.12671
G1 X140.492 Y96.889 E4.19881
G1 X140.663 Y96.928 E4.21281
G1 X141.525 Y97.154 E4.28394
G1 X141.701 Y97.208 E4.29864
G1 X142.544 Y97.497 E4.36977
G1 X142.684 Y97.551 E4.38175
G1 X143.651 Y97.968 E4.46581
G1 X144.475 Y98.394 E4.53986
G1 X144.611 Y98.471 E4.55233
G1 X145.38 Y98.942 E4.62432
G1 X145.522 Y99.036 E4.63791
G1 X146.256 Y99.562 E4.70999
G1 X146.4 Y99.674 E4.72456
G1 X147.068 Y100.232 E4.79403
G1 X147.204 Y100.353 E4.80857
G1 X147.84 Y100.963 E4.87891
G1 X148.483 Y101.656 E4.95437
G1 X148.597 Y101.788 E4.9683
G1 X149.159 Y102.489 E5.04002
G1 X149.263 Y102.628 E5.05387
G1 X149.756 Y103.343 E5.1232
G1 X149.872 Y103.527 E5.14056
G1 X150.315 Y104.283 E5.21051
G1 X150.392 Y104.425 E5.2234
G1 X150.795 Y105.244 E5.29626
G1 X150.851 Y105.37 E5.30727
G1 X151.193 Y106.215 E5.38004
G1 X151.252 Y106.38 E5.39402
G1 X151.524 Y107.227 E5.46504
G1 X151.57 Y107.389 E5.47848
G1 X151.782 Y108.263 E5.55027
G1 X151.815 Y108.421 E5.56315
G1 X151.963 Y109.313 E5.63533
G1 X151.987 Y109.499 E5.6503
G1 X152.069 Y110.383 E5.72117
G1 X152.077 Y110.535 E5.73332
G1 X152.098 Y111.268 E5.79185
G1 X152.098 Y123.72 E6.78583
G1 X152.062 Y124.726 E6.86618
G1 X152.052 Y124.861 E6.87699
G1 X151.95 Y125.778 E6.95064
G1 X151.925 Y125.953 E6.96475
G1 X151.763 Y126.831 E7.03602
G1 X151.733 Y126.965 E7.04698
G1 X151.502 Y127.85 E7.11999
G1 X151.45 Y128.022 E7.13433
G1 X151.163 Y128.864 E7.20534
G1 X151.1 Y129.03 E7.21951
G1 X150.759 Y129.833 E7.28915
G1 X150.678 Y130.008 E7.30455
G1 X150.262 Y130.816 E7.37709
G1 X149.722 Y131.712 E7.4606
G1 X149.622 Y131.863 E7.47506
G1 X149.111 Y132.577 E7.54514
G1 X148.998 Y132.725 E7.56001
G1 X148.325 Y133.525 E7.64346
G1 X147.686 Y134.193 E7.71725
G1 X146.992 Y134.837 E7.79282
G1 X146.851 Y134.958 E7.80766
G1 X146.164 Y135.509 E7.87795
G1 X146.021 Y135.616 E7.89221
G1 X145.306 Y136.109 E7.96154
G1 X145.122 Y136.225 E7.9789
G1 X144.366 Y136.668 E8.04884
G1 X144.224 Y136.745 E8.06174
G1 X143.279 Y137.204 E8.1456
G1 X142.424 Y137.549 E8.2192
G1 X142.261 Y137.607 E8.23301
G1 X141.418 Y137.878 E8.30369
G1 X141.254 Y137.924 E8.31729
G1 X140.382 Y138.136 E8.38892
G1 X140.22 Y138.169 E8.40212
G1 X139.327 Y138.317 E8.47437
G1 X139.15 Y138.34 E8.48862
G1 X138.256 Y138.423 E8.56029
G1 X138.114 Y138.43 E8.57164
G1 X137.373 Y138.451 E8.63081
G1 X134.92 Y138.451 E8.82662
G1 X134.252 Y138.493 E8.88005
G1 X133.581 Y138.622 E8.93459
G1 X132.935 Y138.834 E8.98887
G1 X132.353 Y139.105 E9.04011
G1 X131.835 Y139.353 E9.08596
G1 X131.061 Y139.699 E9.15363
G1 X130.667 Y139.861 E9.18764
G1 X129.793 Y140.187 E9.2621
G1 X129.617 Y140.245 E9.27689
G1 X128.744 Y140.498 E9.34945
G1 X128.274 Y140.64 E9.38864
G1 X128.033 Y140.725 E9.40904
G1 X127.878 Y140.774 E9.42202
G1 X126.875 Y141.043 E9.50491
G1 X126.391 Y141.146 E9.54441
G1 X125.935 Y141.233 E9.58147
G1 X125.165 Y141.361 E9.64377
G1 X124.585 Y141.439 E9.69049
G1 X123.621 Y141.539 E9.76785
G1 X123.058 Y141.58 E9.81291
G1 X122.167 Y141.616 E9.88409
G1 X121.552 Y141.621 E9.93319
G1 X120.698 Y141.604 E10.00137
G1 X120.137 Y141.576 E10.04621
G1 X119.175 Y141.498 E10.12325
G1 X118.613 Y141.434 E10.1684
G1 X117.606 Y141.284 E10.24967
G1 X117.073 Y141.189 E10.29289
G1 X116.2 Y141.005 E10.36411
G1 X115.695 Y140.883 E10.40558
G1 X114.755 Y140.623 E10.48343
G1 X114.189 Y140.447 E10.53074
G1 X113.357 Y140.162 E10.60095
G1 X112.82 Y139.958 E10.6468
G1 X111.955 Y139.601 E10.7215
G1 X111.451 Y139.373 E10.76566
G1 X110.605 Y138.958 E10.84087
G1 X110.365 Y138.831 E10.86255
G1 X109.754 Y138.557 E10.916
G1 X109.1 Y138.358 E10.97057
G1 X108.427 Y138.243 E11.02507
G1 X107.745 Y138.214 E11.07956
G1 X107.109 Y138.266 E11.1305
G1 X106.165 Y138.398 E11.20658
G1 X105.667 Y138.446 E11.24652
G1 X104.542 Y138.516 E11.3365
G1 X104.042 Y138.526 E11.37642
G1 X102.88 Y138.506 E11.46919
G1 X102.41 Y138.479 E11.50677
G1 X101.237 Y138.367 E11.60083
G1 X100.765 Y138.302 E11.63886
G1 X99.533 Y138.081 E11.73877
G1 X99.067 Y137.978 E11.77687
G1 X97.906 Y137.668 E11.87279
G1 X97.457 Y137.53 E11.91029
G1 X96.356 Y137.142 E12.00347
G1 X95.926 Y136.972 E12.04038
G1 X94.79 Y136.469 E12.13955
G1 X94.373 Y136.262 E12.17671
G1 X93.342 Y135.704 E12.27029
G1 X92.903 Y135.442 E12.3111
G1 X91.968 Y134.835 E12.40009
G1 X91.555 Y134.543 E12.44046
G1 X90.608 Y133.814 E12.53586
G1 X90.25 Y133.514 E12.57314
G1 X89.35 Y132.699 E12.67007
G1 X89.013 Y132.367 E12.70783
G1 X88.202 Y131.508 E12.80213
G1 X87.902 Y131.162 E12.83868
G1 X87.158 Y130.239 E12.93332
G1 X86.868 Y129.845 E12.97237
G1 X86.207 Y128.876 E13.066
G1 X85.93 Y128.428 E13.10805
G1 X85.345 Y127.401 E13.20239
G1 X85.105 Y126.931 E13.24452
G1 X84.627 Y125.906 E13.3348
G1 X84.453 Y125.489 E13.37087
G1 X84.024 Y124.344 E13.46847
G1 X83.87 Y123.872 E13.5081
G1 X83.543 Y122.723 E13.60346
G1 X83.439 Y122.294 E13.6387
G1 X83.202 Y121.12 E13.7343
G1 X83.13 Y120.661 E13.77139
G1 X82.989 Y119.489 E13.86562
G1 X82.958 Y119.091 E13.89749
G1 X82.918 Y118.174 E13.97075
G1 X82.917 Y118.01 E13.98385
G1 X82.922 Y117.817 E13.99926
G1 X82.916 Y117.211 E14.04763
G1 X82.963 Y115.975 E14.14637
G1 X82.987 Y115.68 E14.16999
G1 X83.123 Y114.541 E14.26156
G1 X83.211 Y114 E14.30531
G1 X83.44 Y112.859 E14.39821
G1 X83.554 Y112.395 E14.43635
G1 X83.857 Y111.327 E14.52496
G1 X84.017 Y110.839 E14.56596
G1 X84.452 Y109.672 E14.66537
G1 X84.628 Y109.252 E14.70173
G1 X85.138 Y108.165 E14.79757
G1 X85.363 Y107.732 E14.83652
G1 X85.912 Y106.765 E14.92528
G1 X86.21 Y106.29 E14.97005
G1 X86.861 Y105.328 E15.06277
G1 X87.115 Y104.985 E15.09684
G1 X87.87 Y104.04 E15.19339
G1 X88.213 Y103.646 E15.23509
G1 X89.049 Y102.761 E15.33227
G1 X89.377 Y102.442 E15.36879
G1 X90.217 Y101.68 E15.45932
G0 F9000 X89.6 Y102.239
G1 F1125 X89.6 Y132.925 E17.90881
G0 F9000 X91.2 Y134.269
G1 F1125 X91.2 Y100.896 E20.57279
G0 F9000 X92.8 Y99.793
G1 F1125 X92.8 Y135.375 E23.4131
G0 F9000 X94.4 Y136.275
G1 F1125 X94.4 Y98.89 E26.39733
G0 F9000 X96 Y98.165
G1 F1125 X96 Y137.001 E29.49739
G0 F9000 X97.6 Y137.573
G1 F1125 X97.6 Y97.593 E32.68876
G0 F9000 X99.2 Y97.162
G1 F1125 X99.2 Y138.007 E35.94919
G0 F9000 X100.8 Y138.306
G1 F1125 X100.8 Y96.863 E39.25735
G0 F9000 X102.4 Y96.689
G1 F1125 X102.4 Y138.478 E42.59313
G0 F9000 X104 Y138.525
G1 F1125 X104 Y96.64 E45.93657
G0 F9000 X105.6 Y96.713
G1 F1125 X105.6 Y138.451 E49.26828
G0 F9000 X107.2 Y138.259
G1 F1125 X107.2 Y96.892 E52.57037
G0 F9000 X108.8 Y96.78
G1 F1125 X108.8 Y138.306 E55.88515
G0 F9000 X110.4 Y138.849
G1 F1125 X110.4 Y96.154 E59.29325
G0 F9000 X112 Y95.383
G1 F1125 X112 Y139.619 E62.82436
G0 F9000 X113.6 Y140.245
G1 F1125 X113.6 Y94.756 E66.45549
G0 F9000 X115.2 Y94.252
G1 F1125 X115.2 Y140.746 E70.16684
G0 F9000 X116.8 Y141.131
G1 F1125 X116.8 Y93.868 E73.93958
G0 F9000 X118.4 Y93.6
G1 F1125 X118.4 Y141.402 E77.75534
G0 F9000 X120 Y141.564
G1 F1125 X120 Y93.439 E81.59689
G0 F9000 X121.6 Y93.386
G1 F1125 X121.6 Y141.621 E85.44721
G0 F9000 X123.2 Y141.57
G1 F1125 X123.2 Y93.436 E89.28948
G0 F9000 X124.8 Y93.594
G1 F1125 X124.8 Y141.411 E93.10644
G0 F9000 X126.4 Y141.145
G1 F1125 X126.4 Y93.859 E96.88101
G0 F9000 X128 Y94.249
G1 F1125 X128 Y140.736 E100.5918
G0 F9000 X129.6 Y140.25
G1 F1125 X129.6 Y94.776 E104.22174
G0 F9000 X131.2 Y95.37
G1 F1125 X131.2 Y139.637 E107.75532
G0 F9000 X132.8 Y138.897
G1 F1125 X132.8 Y96.101 E111.17148
G0 F9000 X134.4 Y96.519
G1 F1125 X134.4 Y138.484 E114.52131
G0 F9000 X136 Y138.451
G1 F1125 X136 Y96.55 E117.86603
G0 F9000 X137.6 Y96.56
G1 F1125 X137.6 Y138.445 E121.20947
G0 F9000 X139.2 Y138.334
G1 F1125 X139.2 Y96.678 E124.53463
G0 F9000 X140.8 Y96.964
G1 F1125 X140.8 Y138.035 E127.8131
G0 F9000 X142.4 Y137.558
G1 F1125 X142.4 Y97.448 E131.01485
G0 F9000 X144 Y98.149
G1 F1125 X144 Y136.854 E134.10445
G0 F9000 X145.6 Y135.907
G1 F1125 X145.6 Y99.092 E137.04318
G0 F9000 X147.2 Y100.35
G1 F1125 X147.2 Y134.644 E139.78068
G0 F9000 X148.8 Y132.961
G1 F1125 X148.8 Y102.042 E142.24877
G0 F9000 X150.4 Y104.442
G1 F1125 X150.4 Y130.548 E144.33266
G1 F2700 E139.33266
G0 F9000 X151.63 Y130.483
G0 X152.167 Y129.219
G0 X152.652 Y127.602
G0 X153.007 Y125.906
G0 X152 Y125.329
G1 F2700 E144.33266
G1 F1125 X152 Y109.64 E145.58502
G1 F2700 E140.58502
G0 F9000 X153.059 Y109.543
G0 X152.823 Y108.037
G0 X152.262 Y106.046
G0 X151.762 Y104.8
G0 X150.778 Y102.966
G0 X149.996 Y101.832
G0 X148.564 Y100.18
G0 X146.886 Y98.704
G0 X145.157 Y97.557
G0 X143.967 Y96.941
G0 X142.021 Y96.192
G0 X140.701 Y95.846
G0 X125.887 Y92.676
G0 X123.643 Y92.396
G0 X121.124 Y92.323
G0 X119.035 Y92.451
G0 X116.539 Y92.835
G0 X98.733 Y96.177
G0 X97.032 Y96.657
G0 X95.409 Y97.258
G0 X93.835 Y97.983
G0 X92.261 Y98.872
G0 X90.811 Y99.85
G0 X89.462 Y100.926
G0 X88.744 Y101.598
G0 X87.427 Y102.928
G0 X88 Y103.89
G1 F2700 E145.58502
G1 F1125 X88 Y131.275 E147.77101
G0 F9000 X86.4 Y129.158
G1 F1125 X86.4 Y106.009 E149.61887
G0 F9000 X84.8 Y108.885
G1 F1125 X84.8 Y126.276 E151.00709
G1 F2700 E146.00709
G0 F9000 X83.653 Y126.335
G0 X82.851 Y124.182
G0 X82.724 Y123.712
G0 X82.182 Y121.458
G0 X83.2 Y121.107
G1 F2700 E151.00709
G1 F1125 X83.2 Y114.067 E151.56905
G1 F2700 E146.56905
G0 F300 X83.2 Y114.067 Z0.54
G0 F9000 X82.071 Y114.382
G0 X81.895 Y116.012
G0 X81.854 Y118.208
G0 X81.937 Y119.666
G0 X82.182 Y121.458
G0 X82.55 Y123.135
G0 X83.071 Y124.843
G0 X83.726 Y126.497
G0 X84.145 Y127.356
G0 X85.005 Y128.955
G0 X85.929 Y128.426
;TIME_ELAPSED:114.149514
;LAYER:-5
M140 S50
;TYPE:SUPPORT
G1 F2700 E151.56905
G1 F1125 X86.206 Y128.875 E151.6217
G1 X86.868 Y129.844 E151.73879
G1 X87.157 Y130.237 E151.78747
G1 X87.901 Y131.161 E151.90584
G1 X88.202 Y131.507 E151.9516
G1 X89.013 Y132.366 E152.06947
G1 X89.35 Y132.698 E152.11668
G1 X90.25 Y133.513 E152.23783
G1 X90.607 Y133.813 E152.28436
G1 X91.554 Y134.542 E152.4036
G1 X91.967 Y134.833 E152.45401
G1 X92.903 Y135.441 E152.56538
G1 X93.179 Y135.606 E152.59747
G1 X85.835 Y128.262 E153.63379
G1 X85.344 Y127.4 E153.73277
G1 X85.105 Y126.93 E153.78538
G1 X84.627 Y125.905 E153.89823
G1 X84.453 Y125.488 E153.94332
G1 X84.439 Y125.451 E153.94726
G1 X95.979 Y136.992 E155.57575
G1 X96.356 Y137.141 E155.6162
G1 X97.456 Y137.528 E155.73256
G1 X97.906 Y137.666 E155.77952
G1 X98.128 Y137.726 E155.80247
G1 X83.709 Y123.307 E157.83714
G1 X83.543 Y122.722 E157.89782
G1 X83.439 Y122.293 E157.94187
G1 X83.268 Y121.452 E158.0275
G1 X99.975 Y138.159 E160.38504
G1 X100.764 Y138.3 E160.46501
G1 X101.237 Y138.365 E160.51265
G1 X101.633 Y138.403 E160.55234
G1 X83.025 Y119.795 E163.17813
G1 X82.988 Y119.488 E163.20899
G1 X82.958 Y119.09 E163.24881
G1 X82.922 Y118.277 E163.33001
G1 X103.154 Y138.509 E166.18497
G1 X104.042 Y138.525 E166.27359
G1 X104.541 Y138.515 E166.32339
G1 X104.571 Y138.513 E166.32639
G1 X82.928 Y116.869 E169.38052
G1 X82.962 Y115.974 E169.46989
G1 X82.986 Y115.679 E169.49942
G1 X83.004 Y115.531 E169.5143
G1 X105.896 Y138.423 E172.7446
G1 X106.165 Y138.397 E172.77157
G1 X107.108 Y138.265 E172.86658
G1 X107.149 Y138.262 E172.87068
G1 X83.165 Y114.278 E176.25508
G1 X83.21 Y113.999 E176.28328
G1 X83.392 Y113.091 E176.37569
G1 X108.568 Y138.266 E179.92822
G1 X109.1 Y138.357 E179.98207
G1 X109.754 Y138.556 E180.05029
G1 X110.365 Y138.83 E180.1171
G1 X110.604 Y138.957 E180.14411
G1 X110.737 Y139.022 E180.15888
G1 X83.676 Y111.96 E183.97755
G1 X83.856 Y111.326 E184.04331
G1 X84.004 Y110.874 E184.09076
G1 X113.25 Y140.12 E188.21769
G1 X113.357 Y140.161 E188.22912
G1 X114.188 Y140.446 E188.31678
G1 X114.754 Y140.622 E188.37593
G1 X115.323 Y140.779 E188.43482
G1 X84.387 Y109.843 E192.80023
G1 X84.451 Y109.671 E192.81854
G1 X84.627 Y109.25 E192.86407
G1 X84.813 Y108.854 E192.90772
G1 X117.161 Y141.203 E197.47245
G1 X117.605 Y141.282 E197.51744
G1 X118.612 Y141.432 E197.61903
G1 X118.83 Y141.457 E197.64093
G1 X85.273 Y107.9 E202.37618
G1 X85.362 Y107.731 E202.39524
G1 X85.781 Y106.994 E202.47983
G1 X120.373 Y141.586 E207.36114
G1 X120.698 Y141.603 E207.39361
G1 X121.552 Y141.62 E207.47884
G1 X121.818 Y141.617 E207.50538
G1 X86.322 Y106.121 E212.51425
G1 X86.86 Y105.327 E212.60995
G1 X86.895 Y105.28 E212.6158
G1 X123.185 Y141.569 E217.73664
G1 X123.621 Y141.538 E217.78025
G1 X124.478 Y141.448 E217.86624
G1 X87.513 Y104.484 E223.08233
G1 X87.87 Y104.038 E223.13933
G1 X88.155 Y103.711 E223.18261
G1 X125.712 Y141.269 E228.48238
G1 X125.935 Y141.232 E228.50493
G1 X126.391 Y141.145 E228.55125
G1 X126.874 Y141.042 E228.60053
G1 X126.894 Y141.036 E228.60262
G1 X88.839 Y102.981 E233.97259
G1 X89.049 Y102.76 E234.00301
G1 X89.376 Y102.441 E234.04859
G1 X89.553 Y102.281 E234.0724
G1 X128.004 Y140.732 E239.49825
G1 X128.032 Y140.724 E239.50115
G1 X128.273 Y140.639 E239.52665
G1 X128.743 Y140.497 E239.57564
G1 X129.084 Y140.398 E239.61107
G1 X90.298 Y101.611 E245.08427
G1 X90.577 Y101.376 E245.12067
G1 X91.085 Y100.984 E245.18469
G1 X130.152 Y140.051 E250.69747
G1 X130.666 Y139.86 E250.75218
