;FLAVOR:Marlin
;TIME:212
;Filament used: 0.0741726m
;Layer height: 0.2
;MINX:102.547
;MINY:102.547
;MINZ:0.2
;MAXX:132.453
;MAXY:132.453
;MAXZ:5.4
;Generated with Cura_SteamEngine 4.5.0
M140 S50
M105
M190 S50
M104 S200
M105
M109 S200
M82 ;absolute extrusion mode
; Ender 3 Custom Start G-code
G92 E0 ; Reset Extruder
G28 ; Home all axes
G1 Z2.0 F3000 ; Move Z Axis up little to prevent scratching of Heat Bed
G1 X0.1 Y20 Z0.3 F5000.0 ; Move to start position
G1 X0.1 Y200.0 Z0.3 F1500.0 E15 ; Draw the first line
G1 X0.4 Y200.0 Z0.3 F5000.0 ; Move to side a little
G1 X0.4 Y20 Z0.3 F1500.0 E30 ; Draw the second line
G92 E0 ; Reset Extruder
G1 Z2.0 F3000 ; Move Z Axis up little to prevent scratching of Heat Bed
G1 X5 Y20 Z0.3 F5000.0 ; Move over to prevent blob squish
G92 E0
G92 E0
G1 F2700 E-5
;LAYER_COUNT:27
;LAYER:0
M107
G0 F6000 X106.847 Y107.004 Z0.2
;TYPE:SKIRT
G1 F2700 E0
G1 F1200 X107.343 Y106.523 E0.02298
G1 X107.511 Y106.37 E0.03054
G1 X108.025 Y105.931 E0.05302
G1 X108.219 Y105.775 E0.0613
G1 X108.757 Y105.368 E0.08374
G1 X108.976 Y105.213 E0.09266
G1 X109.591 Y104.808 E0.11715
G1 X109.797 Y104.682 E0.12518
G1 X110.356 Y104.363 E0.14659
G1 X110.577 Y104.245 E0.15492
G1 X111.235 Y103.921 E0.17932
G1 X111.47 Y103.815 E0.18789
G1 X112.539 Y103.398 E0.22606
G1 X113.047 Y103.23 E0.24385
G1 X114.308 Y102.895 E0.28725
G1 X114.77 Y102.801 E0.30293
G1 X116.149 Y102.61 E0.34923
G1 X116.607 Y102.576 E0.36451
G1 X117.592 Y102.547 E0.39728
G1 X117.85 Y102.551 E0.40587
G1 X118.548 Y102.584 E0.42911
G1 X118.851 Y102.608 E0.43922
G1 X119.948 Y102.751 E0.47601
G1 X120.383 Y102.83 E0.49072
G1 X121.214 Y103.014 E0.51903
G1 X121.408 Y103.065 E0.5257
G1 X122.155 Y103.29 E0.55165
G1 X122.49 Y103.404 E0.56342
G1 X123.545 Y103.825 E0.6012
G1 X123.947 Y104.01 E0.61591
G1 X124.781 Y104.439 E0.64711
G1 X124.994 Y104.56 E0.65526
G1 X125.587 Y104.921 E0.67835
G1 X125.784 Y105.05 E0.68618
G1 X126.352 Y105.448 E0.70925
G1 X126.575 Y105.615 E0.71851
G1 X127.08 Y106.017 E0.73998
G1 X127.254 Y106.164 E0.74756
G1 X127.807 Y106.664 E0.77235
G1 X127.996 Y106.847 E0.7811
G1 X128.477 Y107.343 E0.80408
G1 X128.63 Y107.511 E0.81164
G1 X129.078 Y108.035 E0.83457
G1 X129.232 Y108.227 E0.84276
G1 X129.608 Y108.724 E0.86348
G1 X129.762 Y108.94 E0.87231
G1 X130.198 Y109.601 E0.89864
G1 X130.326 Y109.811 E0.90682
G1 X130.628 Y110.339 E0.92706
G1 X130.747 Y110.561 E0.93543
G1 X131.079 Y111.235 E0.96042
G1 X131.185 Y111.47 E0.969
G1 X131.6 Y112.533 E1.00695
G1 X131.768 Y113.04 E1.02472
G1 X132.105 Y114.306 E1.06829
G1 X132.198 Y114.763 E1.0838
G1 X132.388 Y116.128 E1.12964
G1 X132.423 Y116.591 E1.14508
G1 X132.453 Y117.59 E1.17832
G1 X132.449 Y117.849 E1.18694
G1 X132.416 Y118.548 E1.21021
G1 X132.392 Y118.851 E1.22032
G1 X132.252 Y119.932 E1.25658
G1 X132.174 Y120.365 E1.27121
G1 X131.98 Y121.236 E1.30089
G1 X131.928 Y121.432 E1.30764
G1 X131.713 Y122.146 E1.33244
G1 X131.6 Y122.479 E1.34413
G1 X131.175 Y123.544 E1.38227
G1 X130.989 Y123.948 E1.39706
G1 X130.561 Y124.781 E1.42821
G1 X130.44 Y124.994 E1.43636
G1 X130.086 Y125.576 E1.45902
G1 X129.958 Y125.772 E1.4668
G1 X129.548 Y126.357 E1.49056
G1 X129.38 Y126.581 E1.49988
G1 X128.97 Y127.095 E1.52174
G1 X128.825 Y127.266 E1.5292
G1 X128.356 Y127.784 E1.55244
G1 X128.171 Y127.976 E1.56131
G1 X127.657 Y128.477 E1.58518
G1 X127.489 Y128.63 E1.59274
G1 X126.975 Y129.069 E1.61522
G1 X126.781 Y129.225 E1.6235
G1 X126.246 Y129.629 E1.6458
G1 X126.03 Y129.782 E1.65461
G1 X125.404 Y130.194 E1.67953
G1 X125.196 Y130.321 E1.68764
G1 X124.661 Y130.628 E1.70815
G1 X124.439 Y130.747 E1.71653
G1 X123.765 Y131.079 E1.74152
G1 X123.53 Y131.185 E1.75009
G1 X122.461 Y131.602 E1.78826
G1 X121.953 Y131.77 E1.80605
G1 X120.692 Y132.105 E1.84945
G1 X120.23 Y132.199 E1.86513
G1 X118.851 Y132.39 E1.91144
G1 X118.393 Y132.424 E1.92671
G1 X117.408 Y132.453 E1.95949
G1 X117.15 Y132.449 E1.96807
G1 X116.452 Y132.416 E1.99131
G1 X116.149 Y132.392 E2.00142
G1 X115.052 Y132.249 E2.03821
G1 X114.617 Y132.17 E2.05292
G1 X113.786 Y131.986 E2.08123
G1 X113.592 Y131.935 E2.0879
G1 X112.845 Y131.71 E2.11385
G1 X112.51 Y131.596 E2.12562
G1 X111.455 Y131.175 E2.1634
G1 X111.053 Y130.99 E2.17811
G1 X110.219 Y130.561 E2.20931
G1 X110.006 Y130.44 E2.21746
G1 X109.413 Y130.079 E2.24055
G1 X109.216 Y129.95 E2.24838
G1 X108.642 Y129.547 E2.27171
G1 X108.418 Y129.379 E2.28102
G1 X107.919 Y128.982 E2.30223
G1 X107.745 Y128.835 E2.3098
G1 X107.192 Y128.335 E2.3346
G1 X107.003 Y128.152 E2.34335
G1 X106.52 Y127.653 E2.36645
G1 X106.368 Y127.486 E2.37396
G1 X105.931 Y126.975 E2.39632
G1 X105.775 Y126.781 E2.4046
G1 X105.371 Y126.246 E2.4269
G1 X105.218 Y126.03 E2.4357
G1 X104.813 Y125.417 E2.46014
G1 X104.685 Y125.208 E2.46829
G1 X104.363 Y124.644 E2.48989
G1 X104.245 Y124.423 E2.49822
G1 X103.921 Y123.765 E2.52262
G1 X103.815 Y123.53 E2.53119
G1 X103.398 Y122.461 E2.56936
G1 X103.23 Y121.953 E2.58715
G1 X102.895 Y120.692 E2.63055
G1 X102.801 Y120.23 E2.64623
G1 X102.61 Y118.853 E2.69247
G1 X102.576 Y118.396 E2.70771
G1 X102.547 Y117.41 E2.74052
G1 X102.551 Y117.151 E2.74913
G1 X102.584 Y116.452 E2.77241
G1 X102.608 Y116.149 E2.78252
G1 X102.751 Y115.055 E2.81921
G1 X102.831 Y114.614 E2.83412
G1 X103.156 Y113.293 E2.87937
G1 X103.319 Y112.772 E2.89753
G1 X103.637 Y111.889 E2.92874
G1 X103.825 Y111.456 E2.94444
G1 X104.011 Y111.052 E2.95923
G1 X104.439 Y110.219 E2.99038
G1 X104.56 Y110.006 E2.99853
G1 X104.914 Y109.424 E3.02119
G1 X105.042 Y109.228 E3.02897
G1 X105.452 Y108.643 E3.05273
G1 X105.62 Y108.419 E3.06205
G1 X106.017 Y107.92 E3.08325
G1 X106.164 Y107.746 E3.09083
G1 X106.664 Y107.193 E3.11563
G1 X106.847 Y107.004 E3.12438
G0 F6000 X107.135 Y107.283
G1 F1200 X107.613 Y106.819 E3.14653
G1 X107.781 Y106.666 E3.15409
G1 X108.275 Y106.242 E3.17574
G1 X108.469 Y106.086 E3.18402
G1 X108.988 Y105.695 E3.20564
G1 X109.207 Y105.54 E3.21456
G1 X109.8 Y105.149 E3.23819
G1 X110.006 Y105.023 E3.24622
G1 X110.544 Y104.715 E3.26684
G1 X110.765 Y104.597 E3.27517
G1 X111.4 Y104.285 E3.2987
G1 X111.635 Y104.179 E3.30727
G1 X112.665 Y103.778 E3.34404
G1 X113.173 Y103.61 E3.36183
G1 X114.388 Y103.287 E3.40365
G1 X114.85 Y103.193 E3.41933
G1 X116.178 Y103.009 E3.46392
G1 X116.636 Y102.975 E3.4792
G1 X117.585 Y102.947 E3.51077
G1 X117.843 Y102.951 E3.51936
G1 X118.516 Y102.983 E3.54176
G1 X118.819 Y103.007 E3.55187
G1 X119.876 Y103.145 E3.58733
G1 X120.311 Y103.224 E3.60203
G1 X121.112 Y103.401 E3.62932
G1 X121.306 Y103.452 E3.63599
G1 X122.026 Y103.669 E3.661
G1 X122.361 Y103.783 E3.67277
G1 X123.377 Y104.189 E3.70916
G1 X123.779 Y104.374 E3.72388
G1 X124.584 Y104.786 E3.75396
G1 X124.797 Y104.907 E3.7621
G1 X125.368 Y105.256 E3.78436
G1 X125.565 Y105.385 E3.79219
G1 X126.112 Y105.768 E3.8144
G1 X126.335 Y105.935 E3.82367
G1 X126.822 Y106.323 E3.84438
G1 X126.996 Y106.47 E3.85196
G1 X127.528 Y106.952 E3.87583
G1 X127.717 Y107.135 E3.88458
G1 X128.181 Y107.613 E3.90674
G1 X128.334 Y107.781 E3.9143
G1 X128.766 Y108.286 E3.9364
G1 X128.92 Y108.478 E3.94459
G1 X129.282 Y108.956 E3.96453
G1 X129.436 Y109.172 E3.97335
G1 X129.856 Y109.809 E3.99873
G1 X129.984 Y110.019 E4.00691
G1 X130.275 Y110.528 E4.02641
G1 X130.394 Y110.75 E4.03479
G1 X130.715 Y111.4 E4.0589
G1 X130.821 Y111.635 E4.06748
G1 X131.22 Y112.659 E4.10403
G1 X131.388 Y113.166 E4.12179
G1 X131.713 Y114.386 E4.16378
G1 X131.806 Y114.843 E4.1793
G1 X131.989 Y116.158 E4.22345
G1 X132.024 Y116.621 E4.2389
G1 X132.053 Y117.584 E4.27094
G1 X132.049 Y117.843 E4.27956
G1 X132.017 Y118.516 E4.30197
G1 X131.993 Y118.819 E4.31208
G1 X131.858 Y119.861 E4.34702
G1 X131.78 Y120.294 E4.36166
G1 X131.594 Y121.133 E4.39024
G1 X131.542 Y121.329 E4.39698
G1 X131.334 Y122.017 E4.42089
G1 X131.221 Y122.35 E4.43259
G1 X130.812 Y123.377 E4.46935
G1 X130.626 Y123.781 E4.48415
G1 X130.214 Y124.584 E4.51416
G1 X130.093 Y124.797 E4.52231
G1 X129.751 Y125.357 E4.54414
G1 X129.623 Y125.553 E4.55192
G1 X129.228 Y126.117 E4.57482
G1 X129.06 Y126.341 E4.58414
G1 X128.665 Y126.836 E4.6052
G1 X128.52 Y127.007 E4.61266
G1 X128.068 Y127.507 E4.63507
G1 X127.883 Y127.699 E4.64394
G1 X127.387 Y128.181 E4.66695
G1 X127.219 Y128.334 E4.6745
G1 X126.725 Y128.758 E4.69616
G1 X126.531 Y128.914 E4.70444
G1 X126.015 Y129.303 E4.72593
G1 X125.799 Y129.456 E4.73473
G1 X125.196 Y129.853 E4.75874
G1 X124.988 Y129.98 E4.76685
G1 X124.472 Y130.275 E4.78662
G1 X124.25 Y130.394 E4.795
G1 X123.6 Y130.715 E4.81911
G1 X123.365 Y130.821 E4.82768
G1 X122.335 Y131.222 E4.86445
G1 X121.827 Y131.39 E4.88224
G1 X120.612 Y131.713 E4.92406
G1 X120.15 Y131.807 E4.93974
G1 X118.822 Y131.991 E4.98433
G1 X118.364 Y132.025 E4.9996
G1 X117.415 Y132.053 E5.03118
G1 X117.157 Y132.049 E5.03976
G1 X116.484 Y132.017 E5.06217
G1 X116.181 Y131.993 E5.07228
G1 X115.124 Y131.855 E5.10774
G1 X114.689 Y131.776 E5.12244
G1 X113.888 Y131.599 E5.14973
G1 X113.694 Y131.548 E5.1564
G1 X112.974 Y131.331 E5.18141
G1 X112.639 Y131.217 E5.19318
G1 X111.623 Y130.811 E5.22957
G1 X111.221 Y130.626 E5.24429
G1 X110.416 Y130.214 E5.27436
G1 X110.203 Y130.093 E5.28251
G1 X109.632 Y129.744 E5.30477
G1 X109.435 Y129.615 E5.3126
G1 X108.882 Y129.227 E5.33507
G1 X108.658 Y129.059 E5.34438
G1 X108.177 Y128.676 E5.36483
G1 X108.003 Y128.529 E5.37241
G1 X107.471 Y128.047 E5.39629
G1 X107.282 Y127.864 E5.40504
G1 X106.816 Y127.384 E5.42729
G1 X106.664 Y127.217 E5.4348
G1 X106.242 Y126.725 E5.45636
G1 X106.086 Y126.531 E5.46464
G1 X105.697 Y126.015 E5.48613
G1 X105.544 Y125.799 E5.49493
G1 X105.155 Y125.208 E5.51847
G1 X105.027 Y124.999 E5.52662
G1 X104.715 Y124.456 E5.54745
G1 X104.597 Y124.235 E5.55578
G1 X104.285 Y123.6 E5.57931
G1 X104.179 Y123.365 E5.58789
G1 X103.778 Y122.335 E5.62465
G1 X103.61 Y121.827 E5.64245
G1 X103.287 Y120.612 E5.68426
G1 X103.193 Y120.15 E5.69994
G1 X103.009 Y118.823 E5.7445
G1 X102.975 Y118.366 E5.75974
G1 X102.947 Y117.416 E5.79135
G1 X102.951 Y117.157 E5.79997
G1 X102.983 Y116.484 E5.82238
G1 X103.007 Y116.181 E5.83249
G1 X103.144 Y115.126 E5.86787
G1 X103.224 Y114.685 E5.88278
G1 X103.538 Y113.412 E5.92639
G1 X103.701 Y112.891 E5.94454
G1 X104.188 Y111.623 E5.98972
G1 X104.374 Y111.219 E6.00451
G1 X104.786 Y110.416 E6.03453
G1 X104.907 Y110.203 E6.04268
G1 X105.249 Y109.643 E6.0645
G1 X105.377 Y109.447 E6.07229
G1 X105.772 Y108.883 E6.09519
G1 X105.94 Y108.659 E6.1045
G1 X106.323 Y108.178 E6.12495
G1 X106.47 Y108.004 E6.13253
G1 X106.952 Y107.472 E6.15641
G1 X107.135 Y107.283 E6.16516
G0 F6000 X107.422 Y107.561
G1 F1200 X107.882 Y107.115 E6.18647
G1 X108.05 Y106.962 E6.19403
G1 X108.526 Y106.554 E6.21488
G1 X108.72 Y106.398 E6.22316
G1 X109.219 Y106.021 E6.24396
G1 X109.438 Y105.866 E6.25288
G1 X110.009 Y105.491 E6.2756
G1 X110.215 Y105.365 E6.28363
G1 X110.733 Y105.068 E6.30349
G1 X110.954 Y104.95 E6.31183
G1 X111.564 Y104.65 E6.33444
G1 X111.799 Y104.544 E6.34301
G1 X112.79 Y104.158 E6.37838
G1 X113.298 Y103.99 E6.39618
G1 X114.467 Y103.679 E6.43641
G1 X114.929 Y103.585 E6.45209
G1 X116.208 Y103.408 E6.49504
G1 X116.666 Y103.374 E6.51031
G1 X117.579 Y103.347 E6.54069
G1 X117.837 Y103.351 E6.54928
G1 X118.484 Y103.382 E6.57082
G1 X118.787 Y103.406 E6.58093
G1 X119.805 Y103.538 E6.61507
G1 X120.24 Y103.617 E6.62978
G1 X121.01 Y103.788 E6.65601
G1 X121.204 Y103.839 E6.66268
G1 X121.897 Y104.048 E6.68676
G1 X122.232 Y104.162 E6.69853
G1 X123.21 Y104.552 E6.73355
G1 X123.612 Y104.737 E6.74826
G1 X124.386 Y105.134 E6.7772
G1 X124.599 Y105.255 E6.78534
G1 X125.149 Y105.591 E6.80678
G1 X125.346 Y105.72 E6.81461
G1 X125.872 Y106.089 E6.83598
G1 X126.095 Y106.256 E6.84525
G1 X126.564 Y106.628 E6.86516
G1 X126.738 Y106.775 E6.87274
G1 X127.25 Y107.239 E6.89572
G1 X127.439 Y107.422 E6.90447
G1 X127.885 Y107.882 E6.92578
G1 X128.038 Y108.05 E6.93334
G1 X128.454 Y108.536 E6.95461
G1 X128.608 Y108.728 E6.9628
G1 X128.956 Y109.189 E6.98201
G1 X129.11 Y109.405 E6.99083
G1 X129.515 Y110.017 E7.01524
G1 X129.643 Y110.227 E7.02342
G1 X129.923 Y110.717 E7.04219
G1 X130.042 Y110.939 E7.05057
G1 X130.35 Y111.564 E7.07375
G1 X130.456 Y111.799 E7.08232
G1 X130.84 Y112.785 E7.11751
G1 X131.008 Y113.292 E7.13528
G1 X131.321 Y114.466 E7.17569
G1 X131.414 Y114.923 E7.1912
G1 X131.59 Y116.188 E7.23368
G1 X131.625 Y116.651 E7.24912
G1 X131.653 Y117.578 E7.27997
G1 X131.649 Y117.837 E7.28859
G1 X131.618 Y118.484 E7.31013
G1 X131.594 Y118.787 E7.32024
G1 X131.464 Y119.79 E7.35388
G1 X131.386 Y120.223 E7.36851
G1 X131.207 Y121.031 E7.39604
G1 X131.155 Y121.227 E7.40278
G1 X130.955 Y121.889 E7.42578
G1 X130.842 Y122.222 E7.43748
G1 X130.448 Y123.21 E7.47286
G1 X130.262 Y123.614 E7.48765
G1 X129.866 Y124.386 E7.51651
G1 X129.745 Y124.599 E7.52465
G1 X129.416 Y125.138 E7.54566
G1 X129.288 Y125.334 E7.55344
G1 X128.908 Y125.877 E7.57549
G1 X128.74 Y126.101 E7.5848
G1 X128.36 Y126.578 E7.60508
G1 X128.215 Y126.749 E7.61254
G1 X127.78 Y127.229 E7.63409
G1 X127.595 Y127.421 E7.64295
G1 X127.118 Y127.885 E7.66509
G1 X126.95 Y128.038 E7.67264
G1 X126.474 Y128.446 E7.6935
G1 X126.28 Y128.602 E7.70178
G1 X125.784 Y128.976 E7.72244
G1 X125.568 Y129.129 E7.73124
G1 X124.987 Y129.512 E7.75439
G1 X124.779 Y129.639 E7.76249
G1 X124.283 Y129.923 E7.7815
G1 X124.061 Y130.042 E7.78988
G1 X123.436 Y130.35 E7.81305
G1 X123.201 Y130.456 E7.82163
G1 X122.21 Y130.842 E7.857
G1 X121.702 Y131.01 E7.8748
G1 X120.533 Y131.321 E7.91503
G1 X120.071 Y131.415 E7.93071
G1 X118.792 Y131.592 E7.97366
G1 X118.334 Y131.626 E7.98893
G1 X117.421 Y131.653 E8.01931
G1 X117.163 Y131.649 E8.02789
G1 X116.516 Y131.618 E8.04944
G1 X116.213 Y131.594 E8.05955
G1 X115.195 Y131.462 E8.09369
G1 X114.76 Y131.383 E8.1084
G1 X113.99 Y131.212 E8.13463
G1 X113.796 Y131.161 E8.1413
G1 X113.103 Y130.952 E8.16538
G1 X112.768 Y130.838 E8.17715
G1 X111.79 Y130.448 E8.21216
G1 X111.388 Y130.263 E8.22688
G1 X110.614 Y129.866 E8.25582
G1 X110.401 Y129.745 E8.26396
G1 X109.851 Y129.409 E8.2854
G1 X109.654 Y129.28 E8.29323
G1 X109.122 Y128.907 E8.31484
G1 X108.898 Y128.739 E8.32415
G1 X108.435 Y128.371 E8.34383
G1 X108.261 Y128.224 E8.3514
G1 X107.749 Y127.76 E8.37438
G1 X107.56 Y127.577 E8.38313
G1 X107.112 Y127.115 E8.40454
G1 X106.96 Y126.948 E8.41205
G1 X106.554 Y126.474 E8.43281
G1 X106.398 Y126.28 E8.44109
G1 X106.024 Y125.784 E8.46175
G1 X105.871 Y125.568 E8.47055
G1 X105.496 Y124.999 E8.49322
G1 X105.368 Y124.79 E8.50137
G1 X105.068 Y124.267 E8.52142
G1 X104.95 Y124.046 E8.52975
G1 X104.65 Y123.436 E8.55236
G1 X104.544 Y123.201 E8.56094
G1 X104.158 Y122.21 E8.59631
G1 X103.99 Y121.702 E8.61411
G1 X103.679 Y120.533 E8.65434
G1 X103.585 Y120.071 E8.67002
G1 X103.408 Y118.794 E8.7129
G1 X103.374 Y118.337 E8.72814
G1 X103.347 Y117.422 E8.75859
G1 X103.351 Y117.163 E8.76721
G1 X103.382 Y116.516 E8.78875
G1 X103.406 Y116.213 E8.79886
G1 X103.538 Y115.197 E8.83293
G1 X103.618 Y114.756 E8.84784
G1 X103.919 Y113.531 E8.8898
G1 X104.082 Y113.01 E8.90795
G1 X104.552 Y111.79 E8.95144
G1 X104.738 Y111.386 E8.96623
G1 X105.134 Y110.614 E8.99509
G1 X105.255 Y110.401 E9.00324
G1 X105.584 Y109.862 E9.02424
G1 X105.712 Y109.666 E9.03203
G1 X106.092 Y109.123 E9.05407
G1 X106.26 Y108.899 E9.06338
G1 X106.628 Y108.436 E9.08305
G1 X106.775 Y108.262 E9.09063
G1 X107.239 Y107.75 E9.11361
G1 X107.422 Y107.561 E9.12236
G1 F2700 E4.12236
;MESH:temp.stl
G0 F6000 X113.611 Y114.983
G0 X114.509 Y115.587
G0 X114.791 Y118.202
G0 X115.127 Y118.983
G0 X115.712 Y119.65
G0 X116.327 Y120.015
G0 X117.5 Y120.468
;TYPE:WALL-INNER
G1 F2700 E9.12236
G1 F1200 X117.3 Y120.461 E9.12902
G1 X117.133 Y120.445 E9.1346
G1 X116.948 Y120.416 E9.14083
G1 X116.754 Y120.374 E9.14743
G1 X116.592 Y120.326 E9.15305
G1 X116.407 Y120.26 E9.15958
G1 X116.232 Y120.184 E9.16593
