;FLAVOR:Marlin
;TIME:813
;Filament used: 0.490941m
;Layer height: 0.2
;MINX:97.152
;MINY:97.147
;MINZ:0.24
;MAXX:137.847
;MAXY:137.853
;MAXZ:16.69
;Generated with Cura_SteamEngine 4.5.0
M140 S50
M105
M190 S50
M104 S200
M105
M109 S200
M82 ;absolute extrusion mode
; Ender 3 Custom Start G-code
G92 E0 ; Reset Extruder
G28 ; Home all axes
G1 Z2.0 F3000 ; Move Z Axis up little to prevent scratching of Heat Bed
G1 X0.1 Y20 Z0.3 F5000.0 ; Move to start position
G1 X0.1 Y200.0 Z0.3 F1500.0 E15 ; Draw the first line
G1 X0.4 Y200.0 Z0.3 F5000.0 ; Move to side a little
G1 X0.4 Y20 Z0.3 F1500.0 E30 ; Draw the second line
G92 E0 ; Reset Extruder
G1 Z2.0 F3000 ; Move Z Axis up little to prevent scratching of Heat Bed
G1 X5 Y20 Z0.3 F5000.0 ; Move over to prevent blob squish
G92 E0
G92 E0
G1 F2700 E-5
;LAYER_COUNT:77
;LAYER:-6
M107
G0 F9000 X103.369 Y103.167 Z0.24
;TYPE:SUPPORT-INTERFACE
G1 F2700 E0
G1 F1125 X103.649 Y102.897 E0.03105
G1 X104.467 Y102.161 E0.11889
G1 X104.65 Y102.009 E0.13788
G1 X105.346 Y101.457 E0.20879
G1 X105.617 Y101.255 E0.23577
G1 X106.434 Y100.688 E0.31515
G1 X106.706 Y100.512 E0.34101
G1 X107.416 Y100.08 E0.40735
G1 X107.713 Y99.911 E0.43463
G1 X108.658 Y99.418 E0.51971
G1 X108.976 Y99.267 E0.54781
G1 X109.832 Y98.889 E0.62251
G1 X110.126 Y98.771 E0.6478
G1 X110.963 Y98.462 E0.71902
G1 X111.312 Y98.346 E0.74837
G1 X112.219 Y98.076 E0.82391
G1 X112.608 Y97.976 E0.85598
G1 X113.52 Y97.768 E0.93064
G1 X113.838 Y97.708 E0.95648
G1 X114.746 Y97.56 E1.02991
G1 X115.134 Y97.511 E1.06113
G1 X116.119 Y97.419 E1.1401
G1 X116.449 Y97.399 E1.16649
G1 X117.395 Y97.372 E1.24204
G1 X117.703 Y97.373 E1.26662
G1 X118.658 Y97.405 E1.3429
G1 X119.013 Y97.429 E1.3713
G1 X119.903 Y97.515 E1.44267
G1 X120.283 Y97.566 E1.47328
G1 X121.256 Y97.725 E1.55198
G1 X121.574 Y97.788 E1.57786
G1 X122.451 Y97.99 E1.64969
G1 X122.727 Y98.062 E1.67246
G1 X123.733 Y98.36 E1.75622
G1 X124.067 Y98.473 E1.78436
G1 X124.859 Y98.765 E1.85174
G1 X125.229 Y98.915 E1.88361
G1 X126.13 Y99.316 E1.96234
G1 X126.429 Y99.461 E1.98886
G1 X127.243 Y99.886 E2.06216
G1 X127.55 Y100.06 E2.09033
G1 X128.367 Y100.558 E2.16671
G1 X128.644 Y100.739 E2.19312
G1 X129.444 Y101.298 E2.27102
G1 X129.674 Y101.47 E2.29395
G1 X130.434 Y102.076 E2.37154
G1 X130.723 Y102.325 E2.40199
G1 X131.385 Y102.929 E2.47353
G1 X131.61 Y103.146 E2.49848
G1 X132.287 Y103.843 E2.57604
G1 X132.514 Y104.094 E2.60306
G1 X133.122 Y104.807 E2.67785
G1 X133.357 Y105.103 E2.70802
G1 X133.912 Y105.847 E2.78212
G1 X134.145 Y106.183 E2.81475
G1 X134.658 Y106.975 E2.89008
G1 X134.826 Y107.255 E2.91614
G1 X135.259 Y108.025 E2.98666
G1 X135.442 Y108.377 E3.01833
G1 X135.912 Y109.369 E3.10595
G1 X136.001 Y109.576 E3.12394
G1 X136.318 Y110.356 E3.19115
G1 X136.444 Y110.697 E3.22017
G1 X136.729 Y111.549 E3.29188
G1 X136.831 Y111.889 E3.32022
G1 X137.106 Y112.938 E3.40678
G1 X137.168 Y113.214 E3.42936
G1 X137.381 Y114.348 E3.52147
G1 X137.4 Y114.482 E3.53227
G1 X137.521 Y115.415 E3.60737
G1 X137.553 Y115.761 E3.63511
G1 X137.612 Y116.703 E3.71045
G1 X137.622 Y117.02 E3.73577
G1 X137.622 Y117.983 E3.81264
G1 X137.61 Y118.346 E3.84163
G1 X137.548 Y119.305 E3.91834
G1 X137.526 Y119.527 E3.93615
G1 X137.398 Y120.538 E4.01749
G1 X137.329 Y120.952 E4.051
G1 X137.159 Y121.822 E4.12176
G1 X137.083 Y122.153 E4.14887
G1 X136.839 Y123.085 E4.22577
G1 X136.732 Y123.436 E4.25506
G1 X136.444 Y124.304 E4.32806
G1 X136.346 Y124.573 E4.35092
G1 X135.982 Y125.474 E4.42849
G1 X135.833 Y125.811 E4.4579
G1 X135.406 Y126.694 E4.53619
G1 X135.28 Y126.937 E4.55804
G1 X134.808 Y127.776 E4.63489
G1 X134.622 Y128.083 E4.66354
G1 X134.091 Y128.897 E4.74112
G1 X133.916 Y129.148 E4.76554
G1 X133.341 Y129.917 E4.84219
G1 X133.124 Y130.188 E4.8699
G1 X132.468 Y130.958 E4.95065
G1 X132.243 Y131.203 E4.9772
G1 X131.61 Y131.854 E5.04969
G1 X131.385 Y132.072 E5.07469
G1 X130.678 Y132.715 E5.15098
G1 X130.373 Y132.972 E5.18282
G1 X129.522 Y133.643 E5.26932
G1 X129.383 Y133.745 E5.28309
G1 X128.566 Y134.312 E5.36247
G1 X128.302 Y134.483 E5.38758
G1 X127.581 Y134.922 E5.45496
G1 X127.299 Y135.083 E5.48088
G1 X126.342 Y135.582 E5.56703
G1 X126.035 Y135.728 E5.59417
G1 X125.168 Y136.111 E5.66983
G1 X124.874 Y136.229 E5.69512
G1 X124.037 Y136.538 E5.76634
G1 X123.688 Y136.654 E5.79569
G1 X122.781 Y136.924 E5.87123
G1 X122.392 Y137.024 E5.9033
G1 X121.48 Y137.232 E5.97797
G1 X121.162 Y137.292 E6.0038
G1 X120.254 Y137.44 E6.07723
G1 X119.866 Y137.489 E6.10845
G1 X118.881 Y137.581 E6.18742
G1 X118.551 Y137.601 E6.21381
G1 X117.605 Y137.628 E6.28936
G1 X117.297 Y137.627 E6.31394
G1 X116.342 Y137.595 E6.39022
G1 X115.987 Y137.571 E6.41862
G1 X115.097 Y137.485 E6.48999
G1 X114.717 Y137.434 E6.5206
G1 X113.744 Y137.275 E6.5993
G1 X113.426 Y137.212 E6.62518
G1 X112.549 Y137.01 E6.69702
G1 X112.273 Y136.938 E6.71978
G1 X111.267 Y136.64 E6.80354
G1 X110.933 Y136.527 E6.83168
G1 X110.141 Y136.235 E6.89906
G1 X109.771 Y136.085 E6.93093
G1 X108.871 Y135.684 E7.00958
G1 X108.571 Y135.54 E7.03615
G1 X107.757 Y135.114 E7.10948
G1 X107.448 Y134.938 E7.13787
G1 X106.63 Y134.44 E7.21431
G1 X106.356 Y134.26 E7.24048
G1 X105.273 Y133.489 E7.3466
G1 X104.545 Y132.905 E7.4211
G1 X104.312 Y132.705 E7.44561
G1 X103.596 Y132.054 E7.52286
G1 X103.352 Y131.815 E7.55012
G1 X102.683 Y131.124 E7.6269
G1 X102.473 Y130.892 E7.65188
G1 X101.844 Y130.15 E7.72953
G1 X101.645 Y129.9 E7.75503
G1 X101.063 Y129.117 E7.83291
G1 X100.852 Y128.812 E7.86251
G1 X100.338 Y128.019 E7.93795
G1 X100.164 Y127.729 E7.96495
G1 X99.718 Y126.932 E8.03785
G1 X99.556 Y126.618 E8.06605
G1 X99.158 Y125.789 E8.13946
G1 X99.022 Y125.48 E8.16641
G1 X98.656 Y124.575 E8.24433
G1 X98.525 Y124.213 E8.27506
G1 X98.243 Y123.36 E8.34678
G1 X98.153 Y123.056 E8.37209
G1 X97.897 Y122.076 E8.45294
G1 X97.819 Y121.723 E8.4818
G1 X97.647 Y120.817 E8.55541
G1 X97.604 Y120.552 E8.57684
G1 X97.475 Y119.542 E8.65812
G1 X97.445 Y119.212 E8.68457
G1 X97.388 Y118.293 E8.75807
G1 X97.378 Y117.983 E8.78283
G1 X97.378 Y116.996 E8.86161
G1 X97.391 Y116.643 E8.88981
G1 X97.447 Y115.746 E8.96155
G1 X97.49 Y115.325 E8.99533
G1 X97.605 Y114.436 E9.06689
G1 X97.666 Y114.072 E9.09635
G1 X97.831 Y113.219 E9.1657
G1 X97.92 Y112.833 E9.19732
G1 X98.168 Y111.893 E9.27492
G1 X98.266 Y111.571 E9.30179
G1 X98.549 Y110.716 E9.37368
G1 X98.674 Y110.376 E9.4026
G1 X99.043 Y109.468 E9.48084
G1 X99.187 Y109.147 E9.50892
G1 X99.597 Y108.3 E9.58404
G1 X99.738 Y108.031 E9.60828
G1 X100.185 Y107.235 E9.68115
G1 X100.378 Y106.917 E9.71085
G1 X100.926 Y106.079 E9.79077
G1 X101.117 Y105.809 E9.81717
G1 X101.664 Y105.075 E9.89024
G1 X101.854 Y104.836 E9.91462
G1 X102.526 Y104.048 E9.99728
G1 X102.744 Y103.811 E10.02299
G1 X103.369 Y103.167 E10.09462
G0 F9000 X104 Y102.581
G1 F1125 X104 Y132.421 E12.47658
G1 F2700 E7.47658
G1 F300 Z0.44
G0 F9000 X105.6 Y133.721 Z0.44
G1 F300 Z0.24
G1 F2700 E12.47658
G1 F1125 X105.6 Y101.267 E15.0672
G1 F2700 E10.0672
G1 F300 Z0.44
G0 F9000 X107.2 Y100.211 Z0.44
G1 F300 Z0.24
G1 F2700 E15.0672
G1 F1125 X107.2 Y134.787 E17.82721
G1 F2700 E12.82721
G1 F300 Z0.44
G0 F9000 X108.8 Y135.649 Z0.44
G1 F300 Z0.24
G1 F2700 E17.82721
G1 F1125 X108.8 Y99.35 E20.72475
G1 F2700 E15.72475
G1 F300 Z0.44
G0 F9000 X110.4 Y98.669 Z0.44
G1 F300 Z0.24
G1 F2700 E20.72475
G1 F1125 X110.4 Y136.33 E23.73101
G1 F2700 E18.73101
G1 F300 Z0.44
G0 F9000 X112 Y136.857 Z0.44
G1 F300 Z0.24
G1 F2700 E23.73101
G1 F1125 X112 Y98.141 E26.82149
G1 F2700 E21.82149
G1 F300 Z0.44
G0 F9000 X113.6 Y97.752 Z0.44
G1 F300 Z0.24
G1 F2700 E26.82149
G1 F1125 X113.6 Y137.246 E29.97407
G1 F2700 E24.97407
G1 F300 Z0.44
G0 F9000 X115.2 Y137.494 Z0.44
G1 F300 Z0.24
G1 F2700 E29.97407
G1 F1125 X115.2 Y97.504 E33.16625
G1 F2700 E28.16625
G1 F300 Z0.44
G0 F9000 X116.8 Y97.388 Z0.44
G1 F300 Z0.24
G1 F2700 E33.16625
G1 F1125 X116.8 Y137.61 E36.37694
G1 F2700 E31.37694
G1 F300 Z0.44
G0 F9000 X118.4 Y137.606 Z0.44
G1 F300 Z0.24
G1 F2700 E36.37694
G1 F1125 X118.4 Y97.397 E39.5866
G1 F2700 E34.5866
G1 F300 Z0.44
G0 F9000 X120 Y97.529 Z0.44
G1 F300 Z0.24
G1 F2700 E39.5866
G1 F1125 X120 Y137.473 E42.7751
G1 F2700 E37.7751
G1 F300 Z0.44
G0 F9000 X121.6 Y137.205 Z0.44
G1 F300 Z0.24
G1 F2700 E42.7751
G1 F1125 X121.6 Y97.794 E45.92106
G1 F2700 E40.92106
G1 F300 Z0.44
G0 F9000 X123.2 Y98.203 Z0.44
G1 F300 Z0.24
G1 F2700 E45.92106
G1 F1125 X123.2 Y136.8 E49.00204
G1 F2700 E44.00204
G1 F300 Z0.44
G0 F9000 X124.8 Y136.257 Z0.44
G1 F300 Z0.24
G1 F2700 E49.00204
G1 F1125 X124.8 Y98.744 E51.99649
G1 F2700 E46.99649
G1 F300 Z0.44
G0 F9000 X126.4 Y99.447 Z0.44
G1 F300 Z0.24
G1 F2700 E51.99649
G1 F1125 X126.4 Y135.552 E54.87854
G1 F2700 E49.87854
G1 F300 Z0.44
G0 F9000 X128 Y134.667 Z0.44
G1 F300 Z0.24
G1 F2700 E54.87854
G1 F1125 X128 Y100.335 E57.61907
G1 F2700 E52.61907
G1 F300 Z0.44
G0 F9000 X129.6 Y101.415 Z0.44
G1 F300 Z0.24
G1 F2700 E57.61907
G1 F1125 X129.6 Y133.582 E60.18678
G1 F2700 E55.18678
G1 F300 Z0.44
G0 F9000 X131.2 Y132.241 Z0.44
G1 F300 Z0.24
G1 F2700 E60.18678
G1 F1125 X131.2 Y102.761 E62.54
G1 F2700 E57.54
G1 F300 Z0.44
G0 F9000 X132.8 Y104.43 Z0.44
G1 F300 Z0.24
G1 F2700 E62.54
G1 F1125 X132.8 Y130.569 E64.62653
G1 F2700 E59.62653
G1 F300 Z0.44
G0 F9000 X134.4 Y128.424 Z0.44
G1 F300 Z0.24
G1 F2700 E64.62653
G1 F1125 X134.4 Y106.577 E66.37045
G1 F2700 E61.37045
G1 F300 Z0.44
G0 F9000 X136 Y109.574 Z0.44
G1 F300 Z0.24
G1 F2700 E66.37045
G1 F1125 X136 Y125.43 E67.63615
G1 F2700 E62.63615
G1 F300 Z0.44
G0 F9000 X137.6 Y118.501 Z0.44
G1 F300 Z0.24
G1 F2700 E67.63615
G1 F1125 X137.6 Y116.512 E67.79492
G1 F2700 E62.79492
G1 F300 Z0.44
G0 F9000 X102.4 Y104.195 Z0.44
G1 F300 Z0.24
G1 F2700 E67.79492
G1 F1125 X102.4 Y130.805 E69.91904
G1 F2700 E64.91904
G1 F300 Z0.44
G0 F9000 X100.8 Y128.731 Z0.44
G1 F300 Z0.24
G1 F2700 E69.91904
G1 F1125 X100.8 Y106.271 E71.7119
G1 F2700 E66.7119
G1 F300 Z0.44
G0 F9000 X99.2 Y109.12 Z0.44
G1 F300 Z0.24
G1 F2700 E71.7119
G1 F1125 X99.2 Y125.876 E73.04943
G1 F2700 E68.04943
G1 F300 Z0.44
G0 F9000 X97.6 Y120.52 Z0.44
G1 F300 Z0.24
G1 F2700 E73.04943
G1 F1125 X97.6 Y114.474 E73.53205
G1 F2700 E68.53205
G1 F300 Z0.44
G0 F9000 X100.81 Y128.839 Z0.44
;TIME_ELAPSED:65.588117
;LAYER:-5
M140 S50
G0 X100.81 Y128.839 Z0.74
;TYPE:SUPPORT
G1 F300 Z0.54
G1 F2700 E73.53205
G1 F1125 X101.025 Y129.15 E73.56506
G1 X101.604 Y129.928 E73.64973
G1 X101.807 Y130.184 E73.67826
G1 X102.442 Y130.931 E73.76386
G1 X102.646 Y131.158 E73.7905
G1 X103.318 Y131.853 E73.87491
G1 X103.564 Y132.093 E73.90491
G1 X104.279 Y132.741 E73.98916
G1 X104.518 Y132.947 E74.01671
G1 X105.236 Y133.522 E74.09702
G1 X105.47 Y133.698 E74.12259
G1 X106.232 Y134.234 E74.20392
G1 X100.761 Y128.762 E74.8795
G1 X100.296 Y128.044 E74.95419
G1 X100.12 Y127.754 E74.9838
G1 X99.677 Y126.96 E75.06319
G1 X99.51 Y126.639 E75.09478
G1 X99.142 Y125.87 E75.16921
G1 X109.12 Y135.848 E76.40121
G1 X109.75 Y136.129 E76.46144
G1 X110.121 Y136.28 E76.49641
G1 X110.916 Y136.573 E76.57038
G1 X111.218 Y136.674 E76.59819
G1 X98.331 Y123.787 E78.18937
G1 X98.195 Y123.373 E78.22742
G1 X98.103 Y123.063 E78.25565
G1 X97.848 Y122.086 E78.34381
G1 X97.832 Y122.015 E78.35016
G1 X112.975 Y137.158 E80.2199
G1 X113.416 Y137.26 E80.25941
G1 X113.74 Y137.325 E80.28827
G1 X114.546 Y137.456 E80.35956
G1 X97.54 Y120.45 E82.45932
G1 X97.425 Y119.546 E82.53889
G1 X97.395 Y119.215 E82.5679
G1 X97.382 Y119.02 E82.58497
G1 X115.983 Y137.62 E84.88161
G1 X116.34 Y137.643 E84.91284
G1 X117.294 Y137.676 E84.99618
G1 X117.311 Y137.676 E84.99767
G1 X97.328 Y117.692 E87.46507
G1 X97.328 Y116.994 E87.52601
G1 X97.341 Y116.639 E87.55702
G1 X97.353 Y116.444 E87.57408
G1 X118.558 Y137.65 E90.19236
G1 X118.885 Y137.63 E90.22097
G1 X119.731 Y137.55 E90.29516
G1 X97.446 Y115.265 E93.04673
G1 X97.557 Y114.416 E93.12149
G1 X97.601 Y114.147 E93.14529
G1 X120.846 Y137.392 E96.01539
G1 X121.166 Y137.341 E96.04368
G1 X121.496 Y137.279 E96.073
G1 X121.91 Y137.184 E96.11008
G1 X97.81 Y113.084 E99.08576
G1 X97.872 Y112.82 E99.10943
G1 X98.068 Y112.069 E99.1772
G1 X122.93 Y136.931 E102.24696
G1 X123.704 Y136.7 E102.31748
G1 X123.905 Y136.633 E102.33598
G1 X98.369 Y111.097 E105.48896
G1 X98.509 Y110.674 E105.52786
G1 X98.627 Y110.356 E105.55747
G1 X98.706 Y110.161 E105.57584
G1 X124.838 Y136.294 E108.80247
G1 X124.882 Y136.278 E108.80656
G1 X125.187 Y136.156 E108.83524
G1 X125.732 Y135.915 E108.88727
G1 X99.079 Y109.262 E112.17816
G1 X99.142 Y109.124 E112.19141
G1 X99.492 Y108.401 E112.26154
G1 X126.595 Y135.504 E115.608
G1 X127.322 Y135.125 E115.67958
G1 X127.428 Y135.065 E115.69022
G1 X99.936 Y107.572 E119.08477
G1 X100.135 Y107.219 E119.12015
G1 X100.339 Y106.884 E119.15439
G1 X100.411 Y106.775 E119.1658
G1 X128.223 Y134.587 E122.5998
G1 X128.327 Y134.524 E122.61042
G1 X128.594 Y134.353 E122.6381
G1 X128.987 Y134.078 E122.67998
G1 X100.915 Y106.006 E126.14608
G1 X101.077 Y105.778 E126.1705
G1 X101.454 Y105.272 E126.22559
G1 X129.728 Y133.547 E129.7167
G1 X130.405 Y133.01 E129.79214
G1 X130.437 Y132.982 E129.79586
G1 X102.018 Y104.564 E133.30474
G1 X102.49 Y104.014 E133.36802
G1 X102.609 Y103.882 E133.38354
G1 X131.113 Y132.385 E136.90292
G1 X131.417 Y132.108 E136.93883
G1 X131.649 Y131.886 E136.96686
G1 X131.766 Y131.766 E136.98149
G1 X103.233 Y103.233 E140.50452
G1 X103.333 Y103.13 E140.51705
G1 X103.609 Y102.864 E140.55052
G1 X103.887 Y102.614 E140.58316
G1 X132.39 Y131.117 E144.10248
G1 X132.505 Y130.992 E144.11731
G1 X132.979 Y130.434 E144.18124
G1 X104.562 Y102.016 E147.69
G1 X104.611 Y101.975 E147.69558
G1 X105.27 Y101.452 E147.76903
G1 X133.545 Y129.727 E151.2602
G1 X133.954 Y129.178 E151.31997
G1 X134.084 Y128.993 E151.33971
G1 X106.011 Y100.92 E154.80594
G1 X106.404 Y100.646 E154.84777
G1 X106.679 Y100.469 E154.87632
G1 X106.775 Y100.411 E154.88611
G1 X134.588 Y128.224 E158.32024
G1 X134.659 Y128.114 E158.33167
G1 X134.85 Y127.801 E158.36368
G1 X135.062 Y127.425 E158.40137
G1 X107.57 Y99.933 E161.79586
G1 X107.676 Y99.873 E161.8065
G1 X108.403 Y99.494 E161.87808
G1 X135.507 Y126.598 E165.22466
G1 X135.878 Y125.83 E165.29913
G1 X135.92 Y125.737 E165.30804
G1 X109.266 Y99.084 E168.59899
G1 X109.812 Y98.843 E168.6511
G1 X110.116 Y98.72 E168.67973
G1 X110.16 Y98.705 E168.68379
G1 X136.292 Y124.837 E171.91036
G1 X136.39 Y124.595 E171.93316
G1 X136.489 Y124.32 E171.95867
G1 X136.63 Y123.902 E171.99719
G1 X111.094 Y98.366 E175.15017
G1 X111.295 Y98.299 E175.16867
G1 X112.069 Y98.068 E175.23919
G1 X136.93 Y122.929 E178.30883
G1 X137.129 Y122.166 E178.37767
G1 X137.188 Y121.915 E178.40018
G1 X113.088 Y97.814 E181.37592
G1 X113.502 Y97.72 E181.41298
G1 X113.832 Y97.657 E181.44231
G1 X114.152 Y97.606 E181.47061
G1 X137.396 Y120.85 E184.34059
G1 X137.445 Y120.56 E184.36627
G1 X137.552 Y119.733 E184.43907
G1 X115.267 Y97.448 E187.19064
G1 X116.114 Y97.368 E187.26492
G1 X116.44 Y97.348 E187.29344
G1 X137.646 Y118.554 E189.91178
G1 X137.658 Y118.347 E189.92989
G1 X137.67 Y117.985 E189.96151
G1 X137.671 Y117.306 E190.02079
G1 X117.687 Y97.322 E192.48826
G1 X117.704 Y97.322 E192.48974
G1 X118.658 Y97.355 E192.57308
G1 X119.016 Y97.379 E192.60441
G1 X137.616 Y115.978 E194.90093
G1 X137.602 Y115.755 E194.92043
G1 X137.57 Y115.416 E194.95016
G1 X137.458 Y114.548 E195.02657
G1 X120.452 Y97.542 E197.12634
G1 X121.258 Y97.674 E197.19765
G1 X121.582 Y97.739 E197.2265
G1 X122.024 Y97.84 E197.26608
G1 X137.166 Y112.983 E199.13576
G1 X137.155 Y112.934 E199.14014
G1 X136.882 Y111.887 E199.23461
G1 X136.776 Y111.535 E199.2667
G1 X136.668 Y111.212 E199.29644
G1 X123.78 Y98.324 E200.88774
G1 X124.082 Y98.425 E200.91555
G1 X124.877 Y98.718 E200.98952
G1 X125.249 Y98.869 E201.02457
