;FLAVOR:Marlin
;TIME:5385
;Filament used: 3.03086m
;Layer height: 0.2
;MINX:71.607
;MINY:87.483
;MINZ:0.2
;MAXX:163.396
;MAXY:147.517
;MAXZ:56
;Generated with Cura_SteamEngine 4.5.0
M140 S50
M105
M190 S50
M104 S200
M105
M109 S200
M82 ;absolute extrusion mode
; Ender 3 Custom Start G-code
G92 E0 ; Reset Extruder
G28 ; Home all axes
G1 Z2.0 F3000 ; Move Z Axis up little to prevent scratching of Heat Bed
G1 X0.1 Y20 Z0.3 F5000.0 ; Move to start position
G1 X0.1 Y200.0 Z0.3 F1500.0 E15 ; Draw the first line
G1 X0.4 Y200.0 Z0.3 F5000.0 ; Move to side a little
G1 X0.4 Y20 Z0.3 F1500.0 E30 ; Draw the second line
G92 E0 ; Reset Extruder
G1 Z2.0 F3000 ; Move Z Axis up little to prevent scratching of Heat Bed
G1 X5 Y20 Z0.3 F5000.0 ; Move over to prevent blob squish
G92 E0
G92 E0
G1 F2700 E-5
;LAYER_COUNT:281
;LAYER:0
M107
G0 F6000 X82.335 Y94.499 Z0.2
;TYPE:SKIRT
G1 F2700 E0
G1 F1200 X82.672 Y94.221 E0.01453
G1 X83.648 Y93.46 E0.05569
G1 X83.982 Y93.213 E0.06951
G1 X84.977 Y92.519 E0.10986
G1 X85.346 Y92.277 E0.12454
G1 X86.389 Y91.634 E0.16529
G1 X86.767 Y91.416 E0.1798
G1 X87.845 Y90.832 E0.22058
G1 X88.219 Y90.642 E0.23453
G1 X89.335 Y90.113 E0.27561
G1 X89.726 Y89.94 E0.28983
G1 X90.857 Y89.478 E0.33046
G1 X91.26 Y89.326 E0.34479
G1 X92.418 Y88.926 E0.38554
G1 X92.826 Y88.798 E0.39976
G1 X93.994 Y88.465 E0.44016
G1 X94.42 Y88.356 E0.45478
G1 X95.624 Y88.085 E0.49583
G1 X96.043 Y88.003 E0.51003
G1 X97.244 Y87.801 E0.55054
G1 X97.667 Y87.742 E0.56474
G1 X98.886 Y87.605 E0.60554
G1 X99.314 Y87.569 E0.61983
G1 X100.544 Y87.499 E0.6608
G1 X100.968 Y87.486 E0.67491
G1 X102.182 Y87.483 E0.71529
G1 X102.613 Y87.494 E0.72963
G1 X103.843 Y87.559 E0.7706
G1 X104.281 Y87.594 E0.78521
G1 X105.503 Y87.728 E0.8261
G1 X105.922 Y87.786 E0.84017
G1 X107.123 Y87.984 E0.88065
G1 X107.551 Y88.067 E0.89515
G1 X108.744 Y88.333 E0.93581
G1 X109.156 Y88.437 E0.94994
G1 X110.345 Y88.771 E0.99102
G1 X110.756 Y88.898 E1.00532
G1 X111.913 Y89.293 E1.04599
G1 X112.324 Y89.447 E1.06058
G1 X113.451 Y89.904 E1.10103
G1 X113.829 Y90.069 E1.11475
G1 X114.941 Y90.59 E1.15559
G1 X115.343 Y90.793 E1.17057
G1 X116.417 Y91.374 E1.21119
G1 X116.775 Y91.579 E1.22491
G1 X117.83 Y92.224 E1.26603
G1 X118.196 Y92.462 E1.28056
G1 X119.203 Y93.158 E1.32127
G1 X119.552 Y93.415 E1.33569
G1 X120.519 Y94.166 E1.37641
G1 X120.848 Y94.436 E1.39056
G1 X121.765 Y95.232 E1.43095
G1 X122.081 Y95.521 E1.44519
G1 X122.96 Y96.373 E1.48591
G1 X123.266 Y96.687 E1.50049
G1 X124.104 Y97.596 E1.54161
G1 X124.381 Y97.913 E1.55561
G1 X125.154 Y98.848 E1.59596
G1 X125.422 Y99.192 E1.61047
G1 X126.155 Y100.187 E1.65157
G1 X126.396 Y100.533 E1.6656
G1 X127.068 Y101.557 E1.70633
G1 X127.293 Y101.922 E1.7206
G1 X127.907 Y102.98 E1.76128
G1 X128.117 Y103.366 E1.7759
G1 X128.667 Y104.45 E1.81633
G1 X128.85 Y104.836 E1.83053
G1 X129.348 Y105.967 E1.87164
G1 X129.512 Y106.369 E1.88608
G1 X129.938 Y107.504 E1.9264
G1 X130.074 Y107.899 E1.94029
G1 X130.443 Y109.069 E1.9811
G1 X130.562 Y109.488 E1.99558
G1 X130.867 Y110.684 E2.03664
G1 X130.875 Y110.72 E2.03786
G1 X131.043 Y110.534 E2.0462
G1 X131.601 Y109.975 E2.07247
G1 X132.004 Y109.634 E2.09003
G1 X132.307 Y109.395 E2.10286
G1 X132.951 Y108.938 E2.12913
G1 X133.411 Y108.667 E2.14689
G1 X133.764 Y108.475 E2.16025
G1 X134.476 Y108.133 E2.18652
G1 X134.922 Y107.962 E2.20241
G1 X135.289 Y107.834 E2.21534
G1 X136.047 Y107.612 E2.24161
G1 X136.492 Y107.519 E2.25673
G1 X136.88 Y107.45 E2.26983
G1 X137.664 Y107.352 E2.29611
G1 X138.186 Y107.33 E2.31349
G1 X138.579 Y107.327 E2.32656
G1 X139.368 Y107.361 E2.35283
G1 X139.863 Y107.424 E2.36943
G1 X140.247 Y107.485 E2.38236
G1 X141.019 Y107.648 E2.4086
G1 X141.49 Y107.788 E2.42494
G1 X141.871 Y107.915 E2.4383
G1 X142.606 Y108.203 E2.46456
G1 X143.061 Y108.425 E2.4814
G1 X143.402 Y108.606 E2.49424
G1 X144.08 Y109.011 E2.5205
G1 X144.51 Y109.321 E2.53813
G1 X144.821 Y109.561 E2.5512
G1 X144.844 Y109.581 E2.55221
G1 X144.961 Y109.468 E2.55762
G1 X145.826 Y108.742 E2.59518
G1 X146.2 Y108.472 E2.61053
G1 X147.192 Y107.863 E2.64924
G1 X147.609 Y107.648 E2.66485
G1 X148.64 Y107.207 E2.70214
G1 X149.072 Y107.058 E2.71734
G1 X150.175 Y106.766 E2.75529
G1 X150.638 Y106.679 E2.77096
G1 X151.789 Y106.55 E2.80948
G1 X152.248 Y106.533 E2.82476
G1 X153.361 Y106.572 E2.8618
G1 X153.822 Y106.621 E2.87722
G1 X154.964 Y106.829 E2.91583
G1 X155.417 Y106.947 E2.9314
G1 X156.459 Y107.299 E2.96798
G1 X156.88 Y107.475 E2.98316
G1 X157.924 Y108.006 E3.02211
G1 X158.322 Y108.248 E3.03761
G1 X159.252 Y108.911 E3.07559
G1 X159.611 Y109.209 E3.09111
G1 X160.428 Y109.995 E3.12882
G1 X160.732 Y110.333 E3.14394
G1 X161.428 Y111.23 E3.1817
G1 X161.69 Y111.624 E3.19744
G1 X162.242 Y112.6 E3.23473
G1 X162.436 Y113.009 E3.24979
G1 X162.852 Y114.085 E3.28816
G1 X162.989 Y114.536 E3.30383
G1 X163.239 Y115.639 E3.34145
G1 X163.308 Y116.096 E3.35682
G1 X163.395 Y117.243 E3.39508
G1 X163.396 Y117.704 E3.41041
G1 X163.315 Y118.84 E3.44829
G1 X163.248 Y119.302 E3.46382
G1 X163.01 Y120.39 E3.50086
G1 X162.879 Y120.834 E3.51626
G1 X162.467 Y121.924 E3.55502
G1 X162.273 Y122.34 E3.57028
G1 X161.709 Y123.347 E3.60867
G1 X161.447 Y123.743 E3.62447
G1 X160.767 Y124.626 E3.66153
G1 X160.466 Y124.964 E3.67659
G1 X159.643 Y125.762 E3.71471
G1 X159.284 Y126.062 E3.73028
G1 X158.381 Y126.713 E3.7673
G1 X157.986 Y126.957 E3.78274
G1 X157.294 Y127.337 E3.809
G1 X156.933 Y127.502 E3.8222
G1 X156.511 Y127.681 E3.83745
G1 X155.466 Y128.039 E3.87419
G1 X155.014 Y128.159 E3.88974
G1 X153.887 Y128.371 E3.92788
G1 X153.426 Y128.423 E3.94331
G1 X152.297 Y128.468 E3.9809
G1 X151.838 Y128.453 E3.99617
G1 X150.672 Y128.326 E4.03518
G1 X150.208 Y128.24 E4.05088
G1 X149.137 Y127.962 E4.08768
G1 X148.707 Y127.817 E4.10277
G1 X147.645 Y127.369 E4.14111
G1 X147.225 Y127.154 E4.1568
G1 X146.252 Y126.563 E4.19466
G1 X145.876 Y126.295 E4.21002
G1 X144.997 Y125.566 E4.248
G1 X144.845 Y125.419 E4.25504
G1 X144.608 Y125.606 E4.26508
G1 X143.964 Y126.063 E4.29134
G1 X143.522 Y126.324 E4.30842
G1 X143.173 Y126.515 E4.32165
G1 X142.462 Y126.859 E4.34792
G1 X141.997 Y127.038 E4.36449
G1 X141.63 Y127.166 E4.37742
G1 X140.872 Y127.388 E4.40369
G1 X140.427 Y127.481 E4.41881
G1 X140.039 Y127.55 E4.43192
G1 X139.255 Y127.648 E4.4582
G1 X138.733 Y127.67 E4.47557
G1 X138.34 Y127.673 E4.48864
G1 X137.551 Y127.639 E4.51491
G1 X137.056 Y127.576 E4.53151
G1 X136.672 Y127.515 E4.54444
G1 X135.9 Y127.352 E4.57068
G1 X135.429 Y127.212 E4.58702
G1 X135.048 Y127.085 E4.60038
G1 X134.313 Y126.797 E4.62664
G1 X133.858 Y126.575 E4.64348
G1 X133.517 Y126.394 E4.65632
G1 X132.839 Y125.989 E4.68258
G1 X132.409 Y125.679 E4.70022
G1 X132.098 Y125.439 E4.71328
G1 X131.498 Y124.926 E4.73954
G1 X131.165 Y124.59 E4.75527
G1 X130.893 Y124.299 E4.76852
G1 X130.474 Y125.826 E4.82119
G1 X130.106 Y127.007 E4.86233
G1 X129.97 Y127.405 E4.87632
G1 X129.547 Y128.543 E4.9167
G1 X129.384 Y128.947 E4.93119
G1 X128.893 Y130.071 E4.97198
G1 X128.713 Y130.455 E4.98609
G1 X128.158 Y131.558 E5.02716
G1 X127.944 Y131.953 E5.0421
G1 X127.337 Y133.004 E5.08247
G1 X127.119 Y133.359 E5.09632
G1 X126.445 Y134.394 E5.1374
G1 X126.205 Y134.743 E5.15149
G1 X125.489 Y135.722 E5.19183
G1 X125.219 Y136.07 E5.20648
G1 X124.434 Y137.025 E5.2476
G1 X124.153 Y137.348 E5.26184
G1 X123.331 Y138.243 E5.30225
G1 X123.04 Y138.543 E5.31616
G1 X122.166 Y139.398 E5.35682
G1 X121.843 Y139.697 E5.37146
G1 X120.912 Y140.51 E5.41257
G1 X120.58 Y140.784 E5.42689
G1 X119.614 Y141.538 E5.46765
G1 X119.276 Y141.788 E5.48163
G1 X118.279 Y142.483 E5.52205
G1 X117.908 Y142.726 E5.5368
G1 X116.867 Y143.367 E5.57746
G1 X116.497 Y143.581 E5.59168
G1 X115.419 Y144.166 E5.63247
G1 X115.04 Y144.358 E5.6466
G1 X113.924 Y144.887 E5.68768
G1 X113.532 Y145.06 E5.70193
G1 X112.408 Y145.519 E5.74231
G1 X112.009 Y145.669 E5.75649
G1 X110.844 Y146.072 E5.79749
G1 X110.431 Y146.203 E5.8119
G1 X109.262 Y146.536 E5.85233
G1 X108.838 Y146.644 E5.86688
G1 X107.634 Y146.915 E5.90793
G1 X107.216 Y146.997 E5.9221
G1 X106.016 Y147.199 E5.96257
G1 X105.592 Y147.258 E5.97681
G1 X104.373 Y147.395 E6.01761
G1 X103.945 Y147.431 E6.03189
G1 X102.715 Y147.501 E6.07287
G1 X102.291 Y147.514 E6.08698
G1 X101.077 Y147.517 E6.12736
G1 X100.646 Y147.506 E6.1417
G1 X99.416 Y147.441 E6.18266
G1 X98.978 Y147.406 E6.19728
G1 X97.756 Y147.272 E6.23817
G1 X97.338 Y147.214 E6.2522
G1 X96.136 Y147.016 E6.29272
G1 X95.707 Y146.933 E6.30725
G1 X94.514 Y146.667 E6.34791
G1 X94.1 Y146.563 E6.3621
G1 X92.912 Y146.229 E6.40315
G1 X92.505 Y146.102 E6.41733
G1 X91.347 Y145.707 E6.45802
G1 X90.929 Y145.552 E6.47285
G1 X89.804 Y145.095 E6.51324
G1 X89.43 Y144.931 E6.52682
G1 X88.316 Y144.409 E6.56774
G1 X87.923 Y144.211 E6.58238
G1 X86.846 Y143.63 E6.62308
G1 X86.479 Y143.419 E6.63716
G1 X85.436 Y142.781 E6.67782
G1 X85.069 Y142.542 E6.69239
G1 X84.054 Y141.84 E6.73344
G1 X83.709 Y141.587 E6.74767
G1 X82.74 Y140.835 E6.78846
G1 X82.406 Y140.561 E6.80283
G1 X81.49 Y139.765 E6.84319
G1 X81.177 Y139.478 E6.85732
G1 X80.297 Y138.625 E6.89808
G1 X79.994 Y138.314 E6.91252
G1 X79.157 Y137.407 E6.95357
G1 X78.875 Y137.084 E6.96783
G1 X78.102 Y136.148 E7.00821
G1 X77.841 Y135.814 E7.02231
G1 X77.107 Y134.82 E7.0634
G1 X76.856 Y134.459 E7.07803
G1 X76.185 Y133.434 E7.11877
G1 X75.965 Y133.077 E7.13272
G1 X75.351 Y132.019 E7.17341
G1 X75.14 Y131.631 E7.1881
G1 X74.591 Y130.548 E7.22848
G1 X74.409 Y130.164 E7.24262
G1 X73.911 Y129.033 E7.28372
G1 X73.749 Y128.634 E7.29804
G1 X73.322 Y127.498 E7.3384
G1 X73.182 Y127.092 E7.35269
G1 X72.811 Y125.911 E7.39386
G1 X72.694 Y125.501 E7.40804
G1 X72.392 Y124.317 E7.44868
G1 X72.297 Y123.895 E7.46307
G1 X72.06 Y122.691 E7.50388
G1 X71.987 Y122.258 E7.51849
G1 X71.81 Y120.983 E7.5613
G1 X71.763 Y120.556 E7.57559
G1 X71.665 Y119.377 E7.61494
G1 X71.641 Y118.948 E7.62923
G1 X71.607 Y117.727 E7.66986
G1 X71.607 Y117.295 E7.68422
G1 X71.641 Y116.06 E7.72532
G1 X71.664 Y115.633 E7.73954
G1 X71.764 Y114.422 E7.77995
G1 X71.81 Y114.004 E7.79394
G1 X71.972 Y112.823 E7.83359
G1 X72.042 Y112.401 E7.84782
G1 X72.275 Y111.197 E7.8886
G1 X72.37 Y110.772 E7.90309
G1 X72.669 Y109.586 E7.94377
G1 X72.783 Y109.178 E7.95786
G1 X73.15 Y107.997 E7.99899
G1 X73.29 Y107.589 E8.01334
G1 X73.714 Y106.451 E8.05373
G1 X73.876 Y106.049 E8.06815
G1 X74.367 Y104.926 E8.10891
G1 X74.549 Y104.54 E8.12311
G1 X75.104 Y103.439 E8.16412
G1 X75.309 Y103.059 E8.17848
G1 X75.915 Y102.006 E8.21888
G1 X76.139 Y101.641 E8.23313
G1 X76.813 Y100.606 E8.27421
G1 X77.054 Y100.256 E8.28834
G1 X77.771 Y99.276 E8.32873
G1 X78.04 Y98.93 E8.34331
G1 X78.824 Y97.976 E8.38438
G1 X79.108 Y97.648 E8.39881
G1 X79.931 Y96.753 E8.43925
G1 X80.218 Y96.458 E8.45294
G1 X81.1 Y95.595 E8.49398
G1 X81.422 Y95.297 E8.50857
G1 X82.335 Y94.499 E8.5489
G0 F6000 X82.598 Y94.8
G1 F1200 X82.918 Y94.536 E8.5627
G1 X83.894 Y93.775 E8.60386
G1 X84.211 Y93.542 E8.61695
G1 X85.206 Y92.848 E8.6573
G1 X85.556 Y92.618 E8.67123
G1 X86.599 Y91.975 E8.71198
G1 X86.957 Y91.767 E8.72575
G1 X88.035 Y91.183 E8.76653
G1 X88.39 Y91.003 E8.77977
G1 X89.506 Y90.474 E8.82084
G1 X89.878 Y90.311 E8.83435
G1 X91.009 Y89.849 E8.87499
G1 X91.391 Y89.705 E8.88856
G1 X92.549 Y89.305 E8.92931
G1 X92.936 Y89.183 E8.94281
G1 X94.104 Y88.85 E8.9832
G1 X94.508 Y88.747 E8.99707
G1 X95.712 Y88.476 E9.03812
G1 X96.11 Y88.397 E9.05161
G1 X97.311 Y88.195 E9.09212
G1 X97.712 Y88.139 E9.10559
G1 X98.931 Y88.002 E9.14639
G1 X99.337 Y87.968 E9.15994
G1 X100.567 Y87.898 E9.20091
G1 X100.969 Y87.886 E9.21429
G1 X102.183 Y87.883 E9.25467
G1 X102.592 Y87.893 E9.26828
G1 X103.822 Y87.958 E9.30924
G1 X104.238 Y87.992 E9.32313
G1 X105.46 Y88.126 E9.36401
G1 X105.857 Y88.181 E9.37734
G1 X107.058 Y88.379 E9.41783
G1 X107.464 Y88.457 E9.43158
G1 X108.657 Y88.723 E9.47223
G1 X109.048 Y88.822 E9.48565
G1 X110.237 Y89.156 E9.52672
G1 X110.627 Y89.277 E9.54031
G1 X111.784 Y89.672 E9.58097
G1 X112.174 Y89.817 E9.59481
G1 X113.301 Y90.274 E9.63526
G1 X113.66 Y90.431 E9.64829
G1 X114.772 Y90.952 E9.68913
G1 X115.153 Y91.144 E9.70332
G1 X116.227 Y91.725 E9.74394
G1 X116.566 Y91.92 E9.75694
G1 X117.621 Y92.565 E9.79807
G1 X117.968 Y92.792 E9.81186
G1 X118.975 Y93.488 E9.85258
G1 X119.307 Y93.731 E9.86626
G1 X120.274 Y94.482 E9.90698
G1 X120.586 Y94.738 E9.92041
G1 X121.503 Y95.534 E9.96079
G1 X121.802 Y95.808 E9.97428
G1 X122.681 Y96.66 E10.015
G1 X122.972 Y96.958 E10.02885
G1 X123.81 Y97.867 E10.06997
G1 X124.072 Y98.168 E10.08324
G1 X124.845 Y99.103 E10.12359
G1 X125.1 Y99.429 E10.13736
G1 X125.833 Y100.424 E10.17846
G1 X126.062 Y100.753 E10.1918
G1 X126.734 Y101.777 E10.23253
G1 X126.947 Y102.123 E10.24605
G1 X127.561 Y103.181 E10.28673
G1 X127.76 Y103.547 E10.30059
G1 X128.31 Y104.631 E10.34102
G1 X128.484 Y104.997 E10.3545
G1 X128.982 Y106.128 E10.3956
G1 X129.137 Y106.51 E10.40931
G1 X129.563 Y107.645 E10.44963
G1 X129.692 Y108.019 E10.46279
G1 X130.061 Y109.189 E10.5036
G1 X130.175 Y109.586 E10.51733
G1 X130.48 Y110.782 E10.55839
G1 X130.57 Y111.186 E10.57215
G1 X130.655 Y111.618 E10.5868
G1 X130.768 Y111.458 E10.59331
G1 X131.073 Y111.098 E10.60901
G1 X131.34 Y110.802 E10.62226
G1 X131.884 Y110.258 E10.64785
G1 X132.252 Y109.948 E10.66386
G1 X132.555 Y109.709 E10.67669
G1 X133.183 Y109.265 E10.70227
G1 X133.602 Y109.018 E10.71845
G1 X133.955 Y108.826 E10.73181
G1 X134.649 Y108.494 E10.7574
G1 X135.054 Y108.34 E10.77181
G1 X135.421 Y108.212 E10.78474
G1 X136.159 Y107.997 E10.81031
G1 X136.562 Y107.913 E10.824
G1 X136.95 Y107.844 E10.83711
G1 X137.714 Y107.749 E10.86271
G1 X138.19 Y107.73 E10.87856
G1 X138.583 Y107.727 E10.89163
G1 X139.351 Y107.761 E10.9172
G1 X139.8 Y107.819 E10.93226
G1 X140.184 Y107.88 E10.94519
G1 X140.936 Y108.04 E10.97076
G1 X141.363 Y108.168 E10.98559
G1 X141.744 Y108.295 E10.99894
G1 X142.46 Y108.576 E11.02453
G1 X142.873 Y108.779 E11.03983
G1 X143.214 Y108.96 E11.05267
G1 X143.874 Y109.355 E11.07825
G1 X144.266 Y109.638 E11.09434
G1 X144.577 Y109.878 E11.1074
G1 X144.864 Y110.124 E11.11997
G1 X144.904 Y110.08 E11.12195
G1 X145.239 Y109.755 E11.13748
G1 X146.061 Y109.066 E11.17315
G1 X146.435 Y108.796 E11.18849
G1 X147.375 Y108.219 E11.22518
G1 X147.792 Y108.004 E11.24078
G1 X148.77 Y107.585 E11.27617
G1 X149.202 Y107.436 E11.29137
G1 X150.248 Y107.159 E11.32736
G1 X150.711 Y107.072 E11.34303
G1 X151.804 Y106.95 E11.3796
G1 X152.263 Y106.933 E11.39488
G1 X153.319 Y106.969 E11.43002
G1 X153.78 Y107.018 E11.44544
G1 X154.863 Y107.216 E11.48206
G1 X155.316 Y107.334 E11.49763
G1 X156.305 Y107.668 E11.53235
G1 X156.726 Y107.844 E11.54753
G1 X157.717 Y108.348 E11.58451
G1 X158.115 Y108.59 E11.6
G1 X158.996 Y109.219 E11.636
G1 X159.355 Y109.517 E11.65152
G1 X160.131 Y110.262 E11.6873
G1 X160.435 Y110.6 E11.70242
G1 X161.095 Y111.451 E11.73824
G1 X161.357 Y111.845 E11.75398
G1 X161.881 Y112.772 E11.78939
G1 X162.075 Y113.181 E11.80445
G1 X162.47 Y114.201 E11.84083
G1 X162.607 Y114.652 E11.85651
G1 X162.843 Y115.698 E11.89217
G1 X162.912 Y116.155 E11.90754
G1 X162.995 Y117.244 E11.94387
G1 X162.996 Y117.705 E11.9592
G1 X162.919 Y118.783 E11.99515
G1 X162.852 Y119.245 E12.01067
G1 X162.627 Y120.277 E12.04581
G1 X162.496 Y120.721 E12.0612
G1 X162.105 Y121.755 E12.09797
G1 X161.911 Y122.171 E12.11324
G1 X161.376 Y123.126 E12.14965
G1 X161.114 Y123.522 E12.16544
G1 X160.468 Y124.36 E12.20063
G1 X160.167 Y124.698 E12.21568
G1 X159.386 Y125.455 E12.25186
G1 X159.027 Y125.755 E12.26742
G1 X158.171 Y126.373 E12.30254
G1 X157.776 Y126.617 E12.31798
G1 X156.777 Y127.133 E12.35537
G1 X156.355 Y127.312 E12.37062
G1 X155.364 Y127.652 E12.40547
G1 X154.912 Y127.772 E12.42102
G1 X153.842 Y127.973 E12.45723
G1 X153.381 Y128.025 E12.47266
